;FLAVOR:Marlin
;TIME:2767
;Filament used: 4.02025m
;Layer height: 0.21
;Generated with Cura_SteamEngine 3.1.0
M190 S50
M104 S190
M109 S190
M82 ; absolute extrusion mode
G21        ;metric values
G90        ;absolute positioning
M82        ;set extruder to absolute mode
M107       ;start with the fan off
M665 R63.50
M666 X0 Y-0.50 Z-0.90
M301 P20 I1.60 D56.77
M304 P80 I12.71 D300S
G28
G29 Z0.55 V4
;G29 P3 Z0.55 V4
G92 E0                  ;zero the extruded length
G1 F200 E6              ;extrude 5mm of feed stock
G92 E0                  ;zero the extruded length again
G1 F1600
M117 Printing...
;LAYER_COUNT:229
;LAYER:-6
M107
G0 F1360 X0.656 Y-22.756 Z0.36
G1 F2025 X1.646 Y-22.713 E0.11865
G1 X2.523 Y-22.648 E0.22395
G1 X3.437 Y-22.551 E0.334
G1 X4.418 Y-22.416 E0.45257
G1 X5.269 Y-22.271 E0.55593
G1 X6.159 Y-22.092 E0.66463
G1 X7.185 Y-21.849 E0.79088
G1 X7.949 Y-21.644 E0.8856
G1 X8.897 Y-21.359 E1.00413
G1 X9.718 Y-21.084 E1.1078
G1 X10.432 Y-20.822 E1.19886
G1 X10.94 Y-20.622 E1.26423
G1 X11.731 Y-20.291 E1.3669
G1 X12.448 Y-19.967 E1.46111
G1 X13.214 Y-19.595 E1.56307
G1 X13.609 Y-19.39 E1.61636
G1 X14.223 Y-19.058 E1.69994
G1 X14.662 Y-18.811 E1.76025
G1 X15.46 Y-18.336 E1.87145
G1 X16.031 Y-17.971 E1.95259
G1 X16.611 Y-17.584 E2.03608
G1 X17.47 Y-16.976 E2.16209
G1 X17.817 Y-16.715 E2.21408
G1 X18.525 Y-16.161 E2.32172
G1 X19.102 Y-15.679 E2.41174
G1 X19.854 Y-15.017 E2.5317
G1 X20.422 Y-14.483 E2.62505
G1 X21.191 Y-13.717 E2.75501
G1 X21.918 Y-12.934 E2.88295
G1 X22.388 Y-12.396 E2.96849
G1 X22.717 Y-12.006 E3.02958
G1 X23.105 Y-11.525 E3.10357
G1 X23.67 Y-10.788 E3.21477
G1 X23.963 Y-10.387 E3.27423
G1 X24.535 Y-9.556 E3.39503
G1 X25.013 Y-8.816 E3.50051
G1 X25.499 Y-8.005 E3.61372
G1 X26.034 Y-7.004 E3.74962
G1 X26.416 Y-6.159 E3.86065
G1 X26.941 Y-4.722 E4.04384
G1 X27.344 Y-3.132 E4.24024
G1 X27.378 Y-2.97 E4.26006
G1 X27.594 Y-1.408 E4.44887
G1 X27.611 Y-1.205 E4.47326
G1 X27.659 Y-0.023 E4.61491
G1 X27.601 Y1.356 E4.78017
G1 X27.446 Y2.585 E4.92849
G1 X27.244 Y3.596 E5.05194
G1 X27.197 Y3.793 E5.07619
G1 X26.937 Y4.73 E5.19262
G1 X26.887 Y4.887 E5.21235
G1 X26.554 Y5.819 E5.33085
G1 X26.475 Y6.013 E5.35593
G1 X26.108 Y6.847 E5.46503
G1 X26.025 Y7.018 E5.48779
G1 X25.587 Y7.849 E5.60027
G1 X25.42 Y8.141 E5.64055
G1 X25.085 Y8.698 E5.71837
G1 X24.583 Y9.485 E5.83014
G1 X24.237 Y9.996 E5.90403
G1 X23.865 Y10.521 E5.98108
G1 X23.35 Y11.21 E6.08407
G1 X22.909 Y11.773 E6.16971
G1 X22.411 Y12.369 E6.2627
G1 X21.788 Y13.077 E6.37562
G1 X21.151 Y13.755 E6.48701
G1 X20.741 Y14.171 E6.55695
G1 X20.189 Y14.708 E6.64916
G1 X19.768 Y15.093 E6.71747
G1 X19.234 Y15.565 E6.8028
G1 X18.567 Y16.127 E6.90724
G1 X18.238 Y16.39 E6.95767
G1 X17.511 Y16.944 E7.06711
G1 X16.892 Y17.389 E7.1584
G1 X16.203 Y17.859 E7.25826
G1 X15.626 Y18.23 E7.3404
G1 X14.91 Y18.664 E7.44065
G1 X14.304 Y19.013 E7.52438
G1 X13.799 Y19.289 E7.59329
G1 X13.072 Y19.664 E7.69124
G1 X12.742 Y19.826 E7.73525
G1 X12.052 Y20.148 E7.82643
G1 X11.227 Y20.508 E7.9342
G1 X10.459 Y20.813 E8.03315
G1 X9.307 Y21.225 E8.17964
G1 X8.46 Y21.495 E8.28609
G1 X7.569 Y21.75 E8.39705
G1 X6.897 Y21.922 E8.48011
G1 X6.895 Y21.917 E8.48076
G1 X6.355 Y22.049 E8.54732
G1 X5.905 Y22.147 E8.60246
G1 X5.139 Y22.295 E8.69588
G1 X4.688 Y22.373 E8.75068
G1 X3.915 Y22.49 E8.84429
G1 X3.066 Y22.594 E8.9467
G1 X2.255 Y22.672 E9.04426
G1 X1.365 Y22.731 E9.15106
G1 X0.664 Y22.756 E9.23505
G1 X-.264 Y22.767 E9.34617
G1 X-1.241 Y22.744 E9.46319
G1 X-1.675 Y22.726 E9.5152
G1 X-25.34 Y21.274 E12.35409
G1 X-26.188 Y21.197 E12.45604
G1 X-26.466 Y21.162 E12.48959
G1 X-27.38 Y21.019 E12.60036
G1 X-27.561 Y20.984 E12.62244
G1 X-28.575 Y20.747 E12.74712
G1 X-28.781 Y20.69 E12.77271
G1 X-29.818 Y20.363 E12.90291
G1 X-30.552 Y20.083 E12.99697
G1 X-31.648 Y19.588 E13.14097
G1 X-31.786 Y19.519 E13.15944
G1 X-32.698 Y19.016 E13.28415
G1 X-32.894 Y18.896 E13.31167
G1 X-34.163 Y18.042 E13.49481
G1 X-35.006 Y17.364 E13.62435
G1 X-35.685 Y16.742 E13.7346
G1 X-36.43 Y15.978 E13.86238
G1 X-36.545 Y15.851 E13.88289
G1 X-37.086 Y15.21 E13.98332
G1 X-37.233 Y15.022 E14.0119
G1 X-37.889 Y14.123 E14.14515
G1 X-38.485 Y13.164 E14.28035
G1 X-38.589 Y12.979 E14.30576
G1 X-39.12 Y11.957 E14.44366
G1 X-39.547 Y10.967 E14.57276
G1 X-39.837 Y10.162 E14.67521
G1 X-39.891 Y9.996 E14.69611
G1 X-40.254 Y8.692 E14.85818
G1 X-40.304 Y8.473 E14.88508
G1 X-40.561 Y6.969 E15.06778
G1 X-40.587 Y6.737 E15.09573
G1 X-40.669 Y5.774 E15.21145
G1 X-40.69 Y5.029 E15.30069
G1 X-40.689 Y-5.015 E16.50332
G1 X-40.644 Y-6.157 E16.64017
G1 X-40.582 Y-6.798 E16.71728
G1 X-40.55 Y-7.049 E16.74758
G1 X-40.379 Y-8.12 E16.87744
G1 X-40.186 Y-8.969 E16.98169
G1 X-40.117 Y-9.233 E17.01436
G1 X-39.804 Y-10.267 E17.14372
G1 X-39.421 Y-11.269 E17.27216
G1 X-39.038 Y-12.127 E17.38466
G1 X-38.561 Y-13.033 E17.50726
G1 X-38.437 Y-13.249 E17.53708
G1 X-37.913 Y-14.085 E17.65522
G1 X-37.798 Y-14.254 E17.6797
G1 X-37.211 Y-15.053 E17.79841
G1 X-36.486 Y-15.918 E17.93355
G1 X-36.371 Y-16.044 E17.95397
G1 X-35.615 Y-16.81 E18.08284
G1 X-35.398 Y-17.01 E18.11817
G1 X-34.33 Y-17.915 E18.28579
G1 X-32.91 Y-18.889 E18.49197
G1 X-32.686 Y-19.022 E18.52316
G1 X-31.899 Y-19.461 E18.63106
G1 X-31.743 Y-19.541 E18.65206
G1 X-30.827 Y-19.969 E18.77312
G1 X-30.628 Y-20.051 E18.79889
G1 X-29.611 Y-20.436 E18.92909
G1 X-28.721 Y-20.708 E19.04052
G1 X-27.532 Y-20.991 E19.18687
G1 X-26.97 Y-21.092 E19.25524
G1 X-26.74 Y-21.126 E19.28308
G1 X-25.537 Y-21.256 E19.42796
G1 X-1.763 Y-22.722 E22.27998
G1 X-.881 Y-22.756 E22.38567
G1 X-.406 Y-22.765 E22.44255
G1 X0.435 Y-22.757 E22.54325
G0 F1822.5 X0.656 Y-22.756
G0 F1360 X0.00 Y-22.761
G1 F3300 E22.56972
G1 F2025 X0.00 Y22.764 E28.02072
G0 F1360 X-1.6 Y22.729
G1 F2025 X-1.6 Y-22.729 E33.4637
G0 F1360 X-3.2 Y-22.634
G1 F2025 X-3.2 Y22.632 E38.88369
G0 F1360 X-4.8 Y22.534
G1 F2025 X-4.8 Y-22.535 E44.2801
G0 F1360 X-6.4 Y-22.437
G1 F2025 X-6.4 Y22.436 E49.65303
G0 F1360 X-8 Y22.337
G1 F2025 X-8 Y-22.338 E55.00226
G0 F1360 X-9.6 Y-22.239
G1 F2025 X-9.6 Y22.239 E60.3279
G0 F1360 X-11.2 Y22.141
G1 F2025 X-11.2 Y-22.141 E65.63007
G0 F1360 X-12.8 Y-22.042
G1 F2025 X-12.8 Y22.043 E70.90865
G0 F1360 X-14.4 Y21.945
G1 F2025 X-14.4 Y-21.943 E76.16365
G0 F1360 X-16 Y-21.845
G1 F2025 X-16 Y21.847 E81.39517
G0 F1360 X-17.6 Y21.748
G1 F2025 X-17.6 Y-21.746 E86.60299
G0 F1360 X-19.2 Y-21.647
G1 F2025 X-19.2 Y21.65 E91.78722
G0 F1360 X-20.8 Y21.552
G1 F2025 X-20.8 Y-21.549 E96.94799
G0 F1360 X-22.4 Y-21.45
G1 F2025 X-22.4 Y21.454 E102.08516
G0 F1360 X-24 Y21.356
G1 F2025 X-24 Y-21.351 E107.19875
G0 F1360 X-25.6 Y-21.25
G1 F2025 X-25.6 Y21.25 E112.28755
G0 F1360 X-27.2 Y21.047
G1 F2025 X-27.2 Y-21.051 E117.32821
G0 F1360 X-28.8 Y-20.684
G1 F2025 X-28.8 Y20.684 E122.28147
G0 F1360 X-30.4 Y20.14
G1 F2025 X-30.4 Y-20.138 E127.10422
G0 F1360 X-32 Y-19.405
G1 F2025 X-32 Y19.4 E131.75059
G0 F1360 X-33.6 Y18.42
G1 F2025 X-33.6 Y-18.416 E136.16121
G0 F1360 X-35.2 Y-17.178
G1 F2025 X-35.2 Y17.186 E140.27583
G0 F1360 X-36.8 Y15.548
G1 F2025 X-36.8 Y-15.544 E143.99868
G0 F1360 X-38.4 Y-13.309
G1 F2025 X-38.4 Y13.3 E147.18475
G0 F1360 X-40 Y9.604
G1 F2025 X-40 Y-9.62 E149.48656
G0 F1360 X1.6 Y-22.714
G1 F2025 X1.6 Y22.716 E154.92619
G0 F1360 X3.2 Y22.578
G1 F2025 X3.2 Y-22.576 E160.33277
G0 F1360 X4.8 Y-22.35
G1 F2025 X4.8 Y22.354 E165.68547
G0 F1360 X6.4 Y22.038
G1 F2025 X6.4 Y-22.034 E170.9625
G0 F1360 X8 Y-21.628
G1 F2025 X8 Y21.627 E176.1417
G0 F1360 X9.6 Y21.121
G1 F2025 X9.6 Y-21.123 E181.19985
G0 F1360 X11.2 Y-20.513
G1 F2025 X11.2 Y20.519 E186.11287
G0 F1360 X12.8 Y19.798
G1 F2025 X12.8 Y-19.796 E190.85372
G0 F1360 X14.4 Y-18.958
G1 F2025 X14.4 Y18.958 E195.39365
G0 F1360 X16 Y17.99
G1 F2025 X16 Y-17.99 E199.70177
G0 F1360 X17.6 Y-16.878
G1 F2025 X17.6 Y16.877 E203.74347
G0 F1360 X19.2 Y15.594
G1 F2025 X19.2 Y-15.592 E207.47757
G0 F1360 X20.8 Y-14.106
G1 F2025 X20.8 Y14.112 E210.8563
G0 F1360 X22.4 Y12.382
G1 F2025 X22.4 Y-12.381 E213.82133
G0 F1360 X24 Y-10.333
G1 F2025 X24 Y10.331 E216.29557
G0 F1360 X25.6 Y7.825
G1 F2025 X25.6 Y-7.816 E218.16837
G0 F1360 X27.2 Y-3.7
G1 F2025 X27.2 Y3.781 E219.06411
G0 F1360 X0.134 Y22.761
;TIME_ELAPSED:62.303525
;LAYER:-5
M140 S50
G0 X0.134 Y22.761 Z0.675
;TYPE:SUPPORT
G1 F2025 X-.263 Y22.766 E219.10571
G1 X-1.24 Y22.742 E219.2081
G1 X-1.301 Y22.739 E219.2145
G1 X-37.995 Y-13.954 E224.65124
G1 X-38.436 Y-13.249 E224.73837
G1 X-38.534 Y-13.078 E224.75901
G1 X-2.799 Y22.656 E230.05366
G1 X-4.306 Y22.563 E230.21185
G1 X-39.023 Y-12.153 E235.35567
G1 X-39.037 Y-12.127 E235.35876
G1 X-39.42 Y-11.269 E235.4572
G1 X-39.457 Y-11.172 E235.46808
G1 X-5.812 Y22.471 E240.45299
G1 X-7.319 Y22.379 E240.61117
G1 X-39.841 Y-10.142 E245.42976
G1 X-40.116 Y-9.232 E245.52936
G1 X-40.163 Y-9.05 E245.54906
G1 X-8.826 Y22.286 E250.19207
G1 X-10.332 Y22.193 E250.35015
G1 X-40.415 Y-7.888 E254.80729
G1 X-40.549 Y-7.049 E254.89631
G1 X-40.58 Y-6.798 E254.92281
G1 X-40.595 Y-6.653 E254.93808
G1 X-11.839 Y22.102 E259.19868
G1 X-13.345 Y22.009 E259.35676
G1 X-40.676 Y-5.32 E263.40615
G1 X-40.688 Y-5.014 E263.43823
G1 X-40.689 Y-3.919 E263.55295
G1 X-14.852 Y21.916 E267.38098
G1 X-16.358 Y21.824 E267.53905
G1 X-40.689 Y-2.505 E271.14394
G1 X-40.689 Y-1.091 E271.29209
G1 X-17.865 Y21.732 E274.67376
G1 X-19.372 Y21.639 E274.83195
G1 X-40.689 Y0.322 E277.99041
G1 X-40.689 Y1.736 E278.13855
G1 X-20.878 Y21.547 E281.07388
G1 X-22.385 Y21.455 E281.23206
G1 X-40.689 Y3.15 E283.94417
G1 X-40.689 Y4.565 E284.09242
G1 X-23.892 Y21.362 E286.58117
G1 X-25.339 Y21.274 E286.73305
G1 X-25.4 Y21.268 E286.73947
G1 X-40.648 Y6.021 E288.99864
G1 X-40.586 Y6.737 E289.07393
G1 X-40.56 Y6.968 E289.09829
G1 X-40.446 Y7.636 E289.16929
G1 X-27.005 Y21.077 E291.16079
G1 X-27.379 Y21.019 E291.20044
G1 X-27.56 Y20.984 E291.21976
G1 X-28.574 Y20.746 E291.32888
G1 X-28.78 Y20.689 E291.35127
G1 X-28.82 Y20.677 E291.35565
G1 X-40.04 Y9.456 E293.01815
G1 X-39.89 Y9.996 E293.07687
G1 X-39.836 Y10.161 E293.09506
G1 X-39.546 Y10.966 E293.1847
G1 X-39.244 Y11.667 E293.26467
G1 X-31.056 Y19.854 E294.47778
G1 X-31.647 Y19.588 E294.54568
G1 X-31.785 Y19.518 E294.56189
G1 X-32.697 Y19.016 E294.67096
G1 X-32.893 Y18.896 E294.69504
G1 X-34.162 Y18.041 E294.85535
G1 X-34.782 Y17.543 E294.93867
G1 X-36.917 Y15.408 E295.25501
G0 F1360 X-36.543 Y15.851
G1 F2025 X-36.429 Y15.978 E295.27289
G1 X-35.684 Y16.742 E295.38469
G1 X-35.005 Y17.364 E295.48116
G1 X-34.782 Y17.543 E295.51112
G0 F1360 X-37.41 Y-14.782
G1 F2025 X-37.21 Y-15.052 E295.54632
G1 X-36.78 Y-15.566 E295.61654
G1 X1.507 Y22.72 E301.28931
G1 X2.255 Y22.671 E301.36784
G1 X2.817 Y22.616 E301.427
G1 X-36.109 Y-16.31 E307.19453
G1 X-35.614 Y-16.81 E307.26824
G1 X-35.397 Y-17.01 E307.29916
G0 F1360 X-35.395 Y-17.01
G1 F2025 X4.079 Y22.464 E313.14788
G1 X4.688 Y22.372 E313.2124
G1 X5.138 Y22.294 E313.26025
G1 X5.293 Y22.263 E313.27681
G1 X-34.629 Y-17.659 E319.19191
G1 X-34.329 Y-17.914 E319.23316
G1 X-33.82 Y-18.263 E319.29782
G1 X6.465 Y22.021 E325.26663
G1 X6.897 Y21.921 E325.31309
G1 X7.568 Y21.749 E325.38566
G1 X7.598 Y21.74 E325.38894
G1 X-32.981 Y-18.839 E331.40138
G1 X-32.909 Y-18.888 E331.41051
G1 X-32.685 Y-19.022 E331.43785
G1 X-32.084 Y-19.357 E331.50994
G1 X8.692 Y21.42 E337.55165
G1 X9.306 Y21.224 E337.61917
G1 X9.751 Y21.064 E337.66872
G1 X-31.137 Y-19.823 E343.72687
G1 X-30.826 Y-19.969 E343.76286
G1 X-30.627 Y-20.05 E343.78537
G1 X-30.136 Y-20.236 E343.84038
G1 X10.783 Y20.682 E349.90313
G1 X11.227 Y20.507 E349.95313
G1 X11.779 Y20.264 E350.01632
G1 X-29.081 Y-20.596 E356.07039
G1 X-28.72 Y-20.707 E356.10996
G1 X-27.959 Y-20.887 E356.19189
G1 X12.75 Y19.821 E362.22352
G1 X13.071 Y19.663 E362.26101
G1 X13.688 Y19.345 E362.33373
G1 X-26.776 Y-21.119 E368.32913
G1 X-26.739 Y-21.126 E368.33308
G1 X-25.536 Y-21.255 E368.45984
G1 X-25.5 Y-21.257 E368.46362
G1 X14.598 Y18.841 E374.40479
G1 X14.91 Y18.663 E374.44242
G1 X15.485 Y18.314 E374.51289
G1 X-24.168 Y-21.339 E380.38813
G1 X-22.836 Y-21.421 E380.52795
G1 X16.346 Y17.76 E386.33333
G1 X16.892 Y17.388 E386.40255
G1 X17.18 Y17.18 E386.43977
G1 X-21.503 Y-21.503 E392.17129
G1 X-20.171 Y-21.585 E392.3111
G1 X17.99 Y16.576 E397.96528
G1 X18.236 Y16.39 E397.99759
G1 X18.566 Y16.126 E398.04187
G1 X18.777 Y15.948 E398.07079
G1 X-18.839 Y-21.667 E403.64414
G1 X-17.507 Y-21.75 E403.78396
G1 X19.538 Y15.295 E409.27279
G1 X19.767 Y15.093 E409.30478
G1 X20.187 Y14.707 E409.36454
G1 X20.276 Y14.62 E409.37758
G1 X-16.175 Y-21.832 E414.77847
G1 X-14.843 Y-21.914 E414.91829
G1 X20.989 Y13.918 E420.22738
G1 X21.15 Y13.755 E420.25139
G1 X21.678 Y13.193 E420.33217
G1 X-13.511 Y-21.996 E425.546
G1 X-12.179 Y-22.078 E425.68582
G1 X22.344 Y12.445 E430.80096
G1 X22.41 Y12.369 E430.81151
G1 X22.908 Y11.772 E430.89296
G1 X22.986 Y11.672 E430.90625
G1 X-10.847 Y-22.16 E435.91909
G1 X-9.514 Y-22.242 E436.05901
G1 X23.601 Y10.873 E440.96554
G1 X23.864 Y10.521 E441.01157
G1 X24.195 Y10.053 E441.07163
G1 X-8.183 Y-22.325 E445.86896
G1 X-6.851 Y-22.407 E446.00878
G1 X24.761 Y9.205 E450.69261
G1 X25.084 Y8.698 E450.75559
G1 X25.304 Y8.333 E450.80024
G1 X-5.518 Y-22.489 E455.36703
G1 X-4.186 Y-22.571 E455.50684
G1 X25.81 Y7.425 E459.95124
G1 X26.023 Y7.018 E459.99937
G1 X26.107 Y6.846 E460.01942
G1 X26.271 Y6.472 E460.06221
G1 X-2.854 Y-22.653 E464.37755
G1 X-1.762 Y-22.721 E464.49218
G1 X-1.517 Y-22.73 E464.51787
G1 X26.679 Y5.466 E468.69557
G1 X26.886 Y4.886 E468.76009
G1 X26.935 Y4.729 E468.77732
G1 X27.027 Y4.4 E468.81311
G1 X-.134 Y-22.761 E472.83746
G1 X0.655 Y-22.755 E472.92012
G1 X1.315 Y-22.726 E472.98934
G1 X27.309 Y3.267 E476.8407
G1 X27.445 Y2.585 E476.91356
G1 X27.512 Y2.056 E476.96942
G1 X2.842 Y-22.613 E480.62461
G1 X3.437 Y-22.55 E480.6873
G1 X4.418 Y-22.415 E480.79105
G1 X4.462 Y-22.407 E480.79573
G1 X27.625 Y0.755 E484.22763
G1 X27.658 Y-0.023 E484.30922
G1 X27.633 Y-.651 E484.37507
G1 X6.203 Y-22.08 E487.5502
G1 X7.184 Y-21.848 E487.65581
G1 X7.949 Y-21.643 E487.73879
G1 X8.101 Y-21.597 E487.75542
G1 X27.482 Y-2.216 E490.62704
G1 X27.377 Y-2.969 E490.70669
G1 X27.343 Y-3.131 E490.72403
G1 X27.127 Y-3.985 E490.81632
G1 X10.21 Y-20.902 E493.32285
G1 X10.431 Y-20.82 E493.34755
G1 X10.939 Y-20.621 E493.40471
G1 X11.73 Y-20.289 E493.49459
G1 X12.447 Y-19.965 E493.57702
G1 X12.667 Y-19.859 E493.60261
G1 X26.443 Y-6.083 E495.64375
G1 X26.415 Y-6.159 E495.65223
G1 X26.033 Y-7.003 E495.74929
G1 X25.498 Y-8.004 E495.86821
G1 X25.012 Y-8.815 E495.96726
G1 X24.806 Y-9.135 E496.00713
G1 X15.863 Y-18.077 E497.33211
G1 X16.031 Y-17.97 E497.35298
G1 X16.61 Y-17.583 E497.42594
G1 X17.469 Y-16.976 E497.53614
G1 X17.816 Y-16.714 E497.5817
G1 X18.524 Y-16.16 E497.67588
G1 X19.101 Y-15.678 E497.75465
G1 X19.853 Y-15.016 E497.85962
G1 X20.421 Y-14.482 E497.9413
G1 X21.189 Y-13.717 E498.05487
G1 X21.917 Y-12.934 E498.16688
G1 X22.387 Y-12.396 E498.24173
G1 X22.715 Y-12.005 E498.2952
G1 X23.104 Y-11.525 E498.35993
G1 X23.668 Y-10.788 E498.45716
G1 X23.962 Y-10.387 E498.50925
G1 X24.533 Y-9.555 E498.61497
G0 F1360 X0.134 Y22.761
G1 F2025 X-37.41 Y-14.782 E504.17766
G0 F1360 X0.658 Y22.956
;TIME_ELAPSED:148.938386
;LAYER:-4
G0 X0.658 Y22.956 Z0.885
G1 F2700 X1.371 Y22.93 E504.20257
G1 X2.265 Y22.872 E504.23386
G1 X3.01 Y22.8 E504.26
G1 X3.083 Y22.793 E504.26256
G1 X3.864 Y22.699 E504.29003
G1 X4.326 Y22.632 E504.30633
G1 X5.169 Y22.493 E504.33617
G1 X5.641 Y22.404 E504.35295
G1 X5.66 Y22.4 E504.35362
G1 X-10.163 Y22.4 E504.90621
G1 X-16.717 Y22 E505.13553
G1 X7.401 Y22 E505.9778
G1 X8.093 Y21.812 E506.00285
G1 X8.792 Y21.6 E506.02835
G1 X-23.272 Y21.6 E507.14813
G1 X-25.353 Y21.473 E507.22094
G1 X-26.197 Y21.397 E507.25053
G1 X-26.487 Y21.362 E507.26074
G1 X-27.482 Y21.2 E507.29594
G1 X9.983 Y21.2 E508.60434
G1 X10.501 Y21.011 E508.62359
G1 X10.963 Y20.831 E508.64091
G1 X11.038 Y20.8 E508.64374
G1 X-29.098 Y20.8 E510.04542
G1 X-29.89 Y20.549 E510.07443
G1 X-30.282 Y20.399 E510.08909
G1 X11.972 Y20.4 E511.56473
G1 X12.133 Y20.33 E511.57087
G1 X12.829 Y20.005 E511.59769
G1 X12.839 Y20 E511.59808
G1 X-31.226 Y19.999 E513.13697
G1 X-31.89 Y19.69 E513.16255
G1 X-32.055 Y19.599 E513.16913
G1 X13.631 Y19.6 E514.76463
G1 X13.899 Y19.462 E514.77515
G1 X14.378 Y19.2 E514.79422
