; generated by Slic3r 1.1.7 on 2015-10-14 at 09:33:24

; perimeters extrusion width = 0.30mm
; infill extrusion width = 0.31mm
; solid infill extrusion width = 0.31mm
; top infill extrusion width = 0.31mm

G21 ; set units to millimeters
M107
M190 S60 ; wait for bed temperature to be reached
M104 S205 ; set temperature
; [mm] mode
G21
; Relative
G91 
G1 Z20
G90
G28
G29 

; up Z 5
G1 Z5 

; absolute mode
G90
G92 E0
M82


M109 S205 ; wait for temperature to be reached
G90 ; use absolute coordinates
G92 E0
M82 ; use absolute distances for extrusion
G1 F1800.000 E-0.10000
G92 E0
G1 Z0.300 F7800.000
G1 X66.128 Y37.004 F7800.000
G1 E0.10000 F1800.000
G1 X66.756 Y35.974 E0.18060 F1080.000
G1 X67.204 Y35.396 E0.22944
G1 X68.276 Y34.314 E0.33121
G1 X68.635 Y34.023 E0.36209
G1 X70.069 Y33.119 E0.47534
G1 X70.598 Y32.878 E0.51416
G1 X72.285 Y32.357 E0.63209
G1 X72.745 Y32.276 E0.66330
G1 X73.973 Y32.168 E0.74565
G1 X116.027 Y32.168 E3.55512
G1 X117.259 Y32.276 E3.63770 F1080.000
G1 X117.718 Y32.358 E3.66883
G1 X119.401 Y32.878 E3.78653
G1 X119.854 Y33.084 E3.81981
G1 X121.367 Y34.024 E3.93880
G1 X121.726 Y34.316 E3.96969
G1 X122.796 Y35.397 E4.07131
G1 X123.231 Y35.955 E4.11860
G1 X123.872 Y37.004 E4.20070
G1 X124.190 Y37.658 E4.24929
G1 X127.024 Y44.039 E4.71575
G1 X127.477 Y45.527 E4.81964
G1 X127.556 Y45.949 E4.84834
G1 X127.662 Y47.726 E4.96722
G1 X127.636 Y48.102 E4.99239
G1 X127.524 Y48.989 E5.05215
G1 X124.822 Y63.088 E6.01114
G1 X124.757 Y63.347 E6.02898
G1 X124.177 Y64.881 E6.13859
G1 X123.876 Y65.433 E6.18061
G1 X123.338 Y66.224 E6.24448
G1 X108.107 Y85.688 E7.89562
G1 X106.858 Y86.921 E8.01281
G1 X105.927 Y87.569 E8.08862
G1 X104.727 Y88.177 E8.17848
G1 X104.306 Y88.344 E8.20873
G1 X102.601 Y88.784 E8.32640
G1 X101.792 Y88.852 E8.38060
G1 X101.346 Y88.862 E8.41043
G1 X88.258 Y88.851 E9.28479
G1 X87.264 Y88.757 E9.35144
G1 X85.748 Y88.357 E9.45619
G1 X84.315 Y87.706 E9.56138
G1 X83.446 Y87.148 E9.63034
G1 X83.222 Y86.981 E9.64897
G1 X81.893 Y85.688 E9.77285
G1 X66.674 Y66.221 E11.42361
G1 X65.980 Y65.146 E11.50910
G1 X65.843 Y64.881 E11.52903
G1 X65.329 Y63.592 E11.62173
G1 X65.103 Y62.702 E11.68314
G1 X62.369 Y48.180 E12.67032
G1 X62.338 Y47.726 E12.70070
G1 X62.444 Y45.949 E12.81958
G1 X62.523 Y45.527 E12.84829
G1 X62.941 Y44.122 E12.94619
G1 X65.940 Y37.382 E13.43906
G1 X66.108 Y37.044 E13.46424
G1 X66.614 Y37.284 F7800.000
G1 X67.188 Y36.290 E13.54094 F1080.000
G1 X67.392 Y36.020 E13.56357
G1 X67.623 Y35.730 E13.58835
G1 X68.614 Y34.730 E13.68240
G1 X68.973 Y34.438 E13.71328
G1 X70.299 Y33.603 E13.81795
G1 X70.819 Y33.366 E13.85617
G1 X72.378 Y32.884 E13.96516
G1 X73.973 Y32.704 E14.07240
G1 X117.165 Y32.804 E16.95791
G1 X117.624 Y32.885 E16.98904 F1080.000
G1 X119.180 Y33.366 E17.09782
G1 X119.631 Y33.571 E17.13091
G1 X121.029 Y34.440 E17.24089
G1 X121.388 Y34.732 E17.27179
G1 X122.377 Y35.731 E17.36570
G1 X122.753 Y36.210 E17.40642
G1 X123.393 Y37.243 E17.48754
G1 X123.701 Y37.876 E17.53458
G1 X126.530 Y44.245 E18.00013
G1 X126.950 Y45.626 E18.09661
G1 X127.030 Y46.048 E18.12531
G1 X127.127 Y47.690 E18.23519
G1 X127.102 Y48.064 E18.26025
G1 X126.998 Y48.889 E18.31576
G1 X124.303 Y62.958 E19.27273
G1 X124.238 Y63.217 E19.29057
G1 X123.702 Y64.635 E19.39188
G1 X123.416 Y65.158 E19.43164
G1 X122.916 Y65.894 E19.49110
G1 X107.686 Y85.357 E21.14211
G1 X106.532 Y86.496 E21.25043
G1 X105.655 Y87.108 E21.32188
G1 X104.530 Y87.680 E21.40620
G1 X104.109 Y87.846 E21.43644
G1 X102.532 Y88.253 E21.54520
G1 X101.778 Y88.317 E21.59581
G1 X101.346 Y88.326 E21.62466
G1 X88.288 Y88.316 E22.49701
G1 X87.343 Y88.228 E22.56041
G1 X85.942 Y87.857 E22.65722
G1 X84.585 Y87.243 E22.75674
G1 X83.766 Y86.718 E22.82170
G1 X83.542 Y86.552 E22.84033
G1 X82.314 Y85.357 E22.95482
G1 X67.096 Y65.892 E24.60544
G1 X66.455 Y64.898 E24.68445
G1 X66.318 Y64.635 E24.70422
G1 X65.843 Y63.444 E24.78990
G1 X65.629 Y62.601 E24.84801
G1 X62.904 Y48.140 E25.83105
G1 X62.873 Y47.690 E25.86120
G1 X62.970 Y46.048 E25.97108
G1 X63.050 Y45.626 E25.99979
G1 X63.436 Y44.328 E26.09028
G1 X66.419 Y37.620 E26.58069
G1 X66.591 Y37.323 E26.60360
G1 X66.936 Y37.293 F6240.000 E26.50860
G1 F1800.000 E26.50360
G92 E0
G1 X102.539 Y76.677 F7800.000
G1 E0.10000 F1800.000
G1 X101.221 Y75.028 E0.24105 F540.000
G1 X99.734 Y75.624 E0.34811
G1 X99.283 Y76.305 E0.40271
G1 X99.178 Y76.560 E0.42113
G1 X98.884 Y76.951 E0.45379
G1 X98.662 Y77.310 E0.48199
G1 X98.492 Y77.517 E0.49990
G1 X98.299 Y77.706 E0.51792
G1 X98.067 Y77.888 E0.53762
G1 X97.828 Y78.024 E0.55601
G1 X97.303 Y78.273 E0.59482
G1 X96.654 Y78.017 E0.64139
G1 X96.005 Y78.444 E0.69328
G1 X95.828 Y78.531 E0.70649
G1 X95.665 Y78.571 E0.71771
G1 X95.001 Y78.595 E0.76207
G1 X94.335 Y78.571 E0.80657
G1 X94.172 Y78.531 E0.81779
G1 X93.995 Y78.444 E0.83100
G1 X93.346 Y78.017 E0.88289
G1 X92.697 Y78.273 E0.92947
G1 X91.971 Y77.912 E0.98365
G1 X91.701 Y77.706 E1.00634
G1 X91.508 Y77.517 E1.02436
G1 X91.338 Y77.310 E1.04226
G1 X91.116 Y76.951 E1.07047
G1 X90.822 Y76.560 E1.10313
G1 X90.717 Y76.305 E1.12155
G1 X90.266 Y75.624 E1.17614
G1 X88.779 Y75.028 E1.28320
G1 X87.461 Y76.677 E1.42425
G1 X87.759 Y77.109 E1.45929
G1 X87.734 Y77.745 E1.50182
G1 X87.762 Y78.023 E1.52046
G1 X87.414 Y78.120 E1.54456
G1 X87.236 Y77.743 E1.57237
G1 X86.844 Y77.048 E1.62571
G1 X86.322 Y76.257 E1.68900
G1 X85.957 Y75.753 E1.73057
G1 X85.502 Y74.998 E1.78946
G1 X85.005 Y74.088 E1.85869
G1 X84.566 Y73.137 E1.92868
G1 X84.003 Y72.052 E2.01038
G1 X82.475 Y68.620 E2.26133
G1 X81.491 Y66.072 E2.44383
G1 X81.751 Y65.882 E2.46534
G1 X82.276 Y66.290 E2.50976
G1 X83.358 Y66.738 E2.58796
G1 X83.914 Y66.802 E2.62534
G1 X84.192 Y66.855 E2.64430
G1 X84.629 Y66.838 E2.67349
G1 X86.002 Y67.509 E2.77559
G1 X86.716 Y67.993 E2.83317
G1 X87.259 Y68.389 E2.87812
G1 X87.775 Y68.815 E2.92280
G1 X88.518 Y69.546 E2.99245
G1 X88.848 Y69.988 E3.02928
G1 X88.968 Y70.178 E3.04429
G1 X89.110 Y70.490 E3.06721
G1 X89.206 Y70.624 E3.07816
G1 X89.449 Y71.342 E3.12881
G1 X89.617 Y71.714 E3.15611
G1 X90.285 Y72.372 E3.21873
G1 X91.205 Y72.398 E3.28027
G1 X91.718 Y72.186 E3.31728
G1 X91.844 Y72.072 E3.32869
G1 X91.900 Y72.052 E3.33265
G1 X92.007 Y71.964 E3.34190
G1 X92.573 Y71.703 E3.38356
G1 X93.021 Y71.471 E3.41722
G1 X93.473 Y71.189 E3.45286
G1 X93.845 Y70.800 E3.48877
G1 X94.085 Y70.468 E3.51618
G1 X94.365 Y69.571 E3.57898
G1 X94.161 Y68.519 E3.65055
G1 X94.161 Y68.263 E3.66763
G1 X94.045 Y67.487 E3.72006
G1 X93.934 Y66.529 E3.78445
G1 X93.804 Y65.721 E3.83918
G1 X93.649 Y64.026 E3.95285
G1 X93.589 Y63.029 E4.01960
G1 X93.559 Y61.993 E4.08883
G1 X93.582 Y60.979 E4.15656
G1 X93.650 Y60.100 E4.21548
G1 X93.759 Y59.465 E4.25855
G1 X93.898 Y59.089 E4.28532
G1 X93.993 Y58.978 E4.29507
G1 X94.087 Y58.930 E4.30213
G1 X94.363 Y58.857 E4.32115
G1 X94.763 Y58.923 E4.34828
G1 X95.003 Y58.888 E4.36449
G1 X95.243 Y58.923 E4.38067
G1 X95.639 Y58.857 E4.40748
G1 X95.913 Y58.930 E4.42640
G1 X96.007 Y58.978 E4.43346
G1 X96.102 Y59.089 E4.44322
G1 X96.241 Y59.465 E4.46999
G1 X96.264 Y59.583 E4.47805
G1 X96.350 Y60.100 E4.51305
G1 X96.408 Y60.837 E4.56242
G1 X96.440 Y62.024 E4.64178
G1 X96.411 Y63.029 E4.70893
G1 X96.351 Y64.026 E4.77568
G1 X96.196 Y65.721 E4.88935
G1 X96.066 Y66.529 E4.94408
G1 X95.955 Y67.487 E5.00847
G1 X95.839 Y68.263 E5.06090
G1 X95.839 Y68.519 E5.07797
G1 X95.635 Y69.571 E5.14955
G1 X95.915 Y70.468 E5.21235
G1 X96.155 Y70.800 E5.23976
G1 X96.527 Y71.189 E5.27566
G1 X96.979 Y71.471 E5.31130
G1 X97.427 Y71.703 E5.34497
G1 X97.993 Y71.964 E5.38662
G1 X98.100 Y72.052 E5.39587
G1 X98.156 Y72.072 E5.39984
G1 X98.282 Y72.186 E5.41124
G1 X98.795 Y72.398 E5.44826
G1 X99.715 Y72.372 E5.50979
G1 X100.383 Y71.714 E5.57242
G1 X100.551 Y71.342 E5.59972
G1 X100.795 Y70.624 E5.65036
G1 X100.890 Y70.490 E5.66131
G1 X101.032 Y70.178 E5.68424
G1 X101.152 Y69.988 E5.69925
G1 X101.482 Y69.546 E5.73608
G1 X102.225 Y68.815 E5.80572
G1 X102.741 Y68.389 E5.85041
G1 X103.284 Y67.993 E5.89536
G1 X103.998 Y67.509 E5.95293
G1 X105.371 Y66.838 E6.05504
G1 X105.808 Y66.855 E6.08423
G1 X106.086 Y66.802 E6.10318
G1 X106.642 Y66.738 E6.14057
G1 X107.724 Y66.290 E6.21877
G1 X108.249 Y65.882 E6.26318
G1 X108.509 Y66.072 E6.28469
G1 X107.525 Y68.620 E6.46719
G1 X106.799 Y70.272 E6.58771
G1 X105.997 Y72.052 E6.71815
G1 X105.434 Y73.137 E6.79985
G1 X104.995 Y74.088 E6.86983
G1 X104.498 Y74.998 E6.93907
G1 X104.043 Y75.753 E6.99796
G1 X103.678 Y76.257 E7.03953
G1 X103.156 Y77.048 E7.10281
G1 X102.764 Y77.743 E7.15616
G1 X102.586 Y78.120 E7.18397
G1 X102.238 Y78.023 E7.20807
G1 X102.266 Y77.745 E7.22671
G1 X102.247 Y77.100 E7.26980
G1 X102.513 Y76.714 E7.30113
G1 X102.303 Y76.439 F6240.000 E7.20613
G1 F1800.000 E7.20113
G92 E0
G1 X79.592 Y61.653 F7800.000
G1 E0.10000 F1800.000
G1 X79.244 Y61.393 E0.12905 F540.000
G1 X78.710 Y61.276 E0.16554
G1 X78.529 Y61.219 E0.17825
G1 X78.394 Y61.170 E0.18783
G1 X78.045 Y60.995 E0.21388
G1 X77.551 Y60.802 E0.24934
G1 X77.783 Y60.524 E0.27358
G1 X77.986 Y60.211 E0.29846
G1 X78.128 Y59.961 E0.31765
G1 X78.286 Y59.511 E0.34951
G1 X78.837 Y59.733 E0.38920
G1 X79.511 Y59.860 E0.43499
G1 X79.932 Y59.860 E0.46316
G1 X80.316 Y59.834 E0.48885
G1 X80.035 Y60.755 E0.55319
G1 X79.739 Y61.217 E0.58983
G1 X79.607 Y61.611 E0.61758
G1 X79.309 Y61.433 F6240.000 E0.52258
G1 F1800.000 E0.51758
G92 E0
G1 X109.689 Y59.834 F7800.000
G1 E0.10000 F1800.000
G1 X110.068 Y59.860 E0.12538 F540.000
G1 X110.497 Y59.860 E0.15404
G1 X111.041 Y59.766 E0.19091
G1 X111.400 Y59.657 E0.21599
G1 X111.735 Y59.504 E0.24060
G1 X111.880 Y59.987 E0.27430
G1 X112.222 Y60.529 E0.31712
G1 X112.449 Y60.802 E0.34086
G1 X111.955 Y60.995 E0.37633
G1 X111.459 Y61.230 E0.41300
G1 X110.748 Y61.380 E0.46148
G1 X110.401 Y61.656 E0.49112
G1 X110.284 Y61.234 E0.52038
G1 X109.963 Y60.750 E0.55919
G1 X109.702 Y59.877 E0.62004
G1 X110.048 Y59.861 F6240.000 E0.52504
G1 F1800.000 E0.52004
G92 E0
G1 X101.051 Y75.673 F7800.000
G1 E0.10000 F1800.000
G1 X100.093 Y76.057 E0.16891 F540.000
G1 X99.752 Y76.573 E0.21024
G1 X99.652 Y76.816 E0.22786
G1 X99.520 Y77.018 E0.24395
G1 X99.322 Y77.262 E0.26498
G1 X99.098 Y77.622 E0.29327
G1 X98.888 Y77.879 E0.31546
G1 X98.653 Y78.110 E0.33743
G1 X98.297 Y78.377 E0.36718
G1 X97.329 Y78.859 E0.43942
G1 X96.717 Y78.618 E0.48334
G1 X96.320 Y78.881 E0.51518
G1 X95.964 Y79.052 E0.54157
G1 X95.739 Y79.112 E0.55712
G1 X95.563 Y79.103 E0.56892
G1 X95.005 Y79.130 E0.60624
G1 X94.437 Y79.103 E0.64418
G1 X94.261 Y79.112 E0.65598
G1 X94.036 Y79.052 E0.67153
G1 X93.680 Y78.881 E0.69792
G1 X93.283 Y78.618 E0.72976
G1 X92.671 Y78.859 E0.77369
G1 X91.703 Y78.377 E0.84592
G1 X91.347 Y78.110 E0.87567
G1 X91.112 Y77.879 E0.89764
G1 X90.902 Y77.622 E0.91983
G1 X90.678 Y77.262 E0.94813
G1 X90.480 Y77.018 E0.96915
G1 X90.348 Y76.816 E0.98525
G1 X90.248 Y76.573 E1.00286
G1 X89.907 Y76.057 E1.04419
G1 X88.949 Y75.673 E1.11310
G1 X88.128 Y76.701 E1.20099
G1 X88.339 Y77.006 E1.22579
G1 X88.289 Y77.224 E1.24069
G1 X88.272 Y77.748 E1.27576
G1 X88.323 Y78.248 E1.30931
G1 X88.652 Y79.615 E1.40323
G1 X88.736 Y79.832 E1.41878
G1 X88.715 Y80.208 E1.44392
G1 X88.847 Y80.449 E1.46228
G1 X88.781 Y80.684 E1.47860
G1 X88.810 Y80.808 E1.48712
G1 X88.505 Y80.943 E1.50939
G1 X88.241 Y80.843 E1.52824
G1 X88.131 Y80.778 E1.53676
G1 X88.034 Y80.706 E1.54488
G1 X87.827 Y80.432 E1.56778
G1 X87.588 Y79.988 E1.60150
G1 X87.455 Y79.663 E1.62494
G1 X87.317 Y79.249 E1.65408
G1 X87.013 Y78.525 E1.70655
G1 X86.761 Y77.993 E1.74588
G1 X86.383 Y77.323 E1.79727
G1 X85.879 Y76.558 E1.85847
G1 X85.510 Y76.048 E1.90051
G1 X85.041 Y75.270 E1.96125
G1 X84.527 Y74.329 E2.03284
G1 X84.084 Y73.370 E2.10341
G1 X83.520 Y72.286 E2.18506
G1 X82.359 Y69.702 E2.37431
G1 X81.980 Y68.826 E2.43807
G1 X81.590 Y67.832 E2.50941
G1 X80.655 Y65.377 E2.68492
G1 X80.133 Y63.750 E2.79901
G1 X79.823 Y62.833 E2.86371
G1 X79.752 Y62.679 E2.87506
G1 X79.518 Y62.302 E2.90468
G1 X79.342 Y62.135 E2.92086
G1 X79.016 Y61.892 E2.94805
G1 X78.560 Y61.792 E2.97926
G1 X78.185 Y61.667 E3.00565
G1 X77.847 Y61.495 E3.03096
G1 X77.312 Y61.286 E3.06934
G1 X77.005 Y61.210 E3.09046
G1 X76.573 Y61.142 E3.11967
G1 X76.533 Y60.822 E3.14118
G1 X76.847 Y60.669 E3.16451
G1 X77.013 Y60.553 E3.17802
G1 X77.203 Y60.381 E3.19520
G1 X77.352 Y60.204 E3.21064
G1 X77.633 Y59.745 E3.24658
G1 X77.725 Y59.469 E3.26603
G1 X77.785 Y59.075 E3.29265
G1 X77.708 Y58.760 E3.31429
G1 X77.987 Y58.600 E3.33575
G1 X78.285 Y58.886 E3.36338
G1 X78.671 Y59.095 E3.39270
G1 X78.987 Y59.218 E3.41531
G1 X79.549 Y59.322 E3.45355
G1 X80.253 Y59.303 E3.50056
G1 X80.555 Y59.229 E3.52134
G1 X80.909 Y59.016 E3.54897
G1 X81.145 Y59.231 E3.57029
G1 X80.888 Y59.794 E3.61162
G1 X80.521 Y61.005 E3.69614
G1 X80.227 Y61.449 E3.73174
G1 X80.102 Y61.817 E3.75770
G1 X80.153 Y62.049 E3.77355
G1 X80.136 Y62.338 E3.79289
G1 X80.328 Y62.769 E3.82442
G1 X80.456 Y62.932 E3.83825
G1 X80.795 Y63.622 E3.88964
G1 X81.052 Y64.075 E3.92440
G1 X81.339 Y64.541 E3.96102
G1 X81.767 Y65.136 E4.00999
G1 X82.192 Y65.546 E4.04940
G1 X82.554 Y65.827 E4.08001
G1 X83.493 Y66.214 E4.14785
G1 X83.994 Y66.272 E4.18155
G1 X84.234 Y66.318 E4.19789
G1 X84.747 Y66.300 E4.23219
G1 X86.271 Y67.045 E4.34553
G1 X87.026 Y67.556 E4.40643
G1 X87.592 Y67.969 E4.45322
G1 X88.130 Y68.414 E4.49991
G1 X88.929 Y69.200 E4.57474
G1 X89.271 Y69.655 E4.61275
G1 X89.440 Y69.922 E4.63391
G1 X89.576 Y70.221 E4.65585
G1 X89.687 Y70.384 E4.66901
G1 X89.946 Y71.137 E4.72222
G1 X90.072 Y71.410 E4.74229
G1 X90.510 Y71.842 E4.78344
G1 X91.106 Y71.859 E4.82326
G1 X91.427 Y71.726 E4.84645
G1 X91.737 Y71.492 E4.87239
G1 X92.337 Y71.222 E4.91637
G1 X92.754 Y71.006 E4.94774
G1 X93.135 Y70.767 E4.97779
G1 X93.432 Y70.457 E5.00650
G1 X93.600 Y70.225 E5.02559
G1 X93.813 Y69.541 E5.07346
G1 X93.678 Y68.927 E5.11547
G1 X93.625 Y68.560 E5.14026
G1 X93.625 Y68.303 E5.15740
G1 X93.511 Y67.540 E5.20892
G1 X93.403 Y66.599 E5.27220
G1 X93.272 Y65.789 E5.32703
G1 X93.114 Y64.067 E5.44256
G1 X93.053 Y63.047 E5.51081
G1 X93.024 Y61.990 E5.58146
G1 X93.058 Y60.798 E5.66113
G1 X93.118 Y60.034 E5.71229
G1 X93.209 Y59.489 E5.74927
G1 X93.243 Y59.313 E5.76123
G1 X93.425 Y58.817 E5.79653
G1 X93.653 Y58.550 E5.81994
G1 X93.936 Y58.411 E5.84105
G1 X94.336 Y58.310 E5.86857
G1 X94.768 Y58.381 E5.89785
G1 X95.004 Y58.346 E5.91376
G1 X95.238 Y58.381 E5.92955
G1 X95.665 Y58.310 E5.95847
G1 X96.064 Y58.411 E5.98594
G1 X96.347 Y58.550 E6.00705
G1 X96.575 Y58.817 E6.03046
G1 X96.757 Y59.313 E6.06576
G1 X96.882 Y60.034 E6.11470
G1 X96.953 Y60.961 E6.17680
G1 X96.976 Y61.990 E6.24554
G1 X96.947 Y63.047 E6.31618
G1 X96.886 Y64.067 E6.38443
G1 X96.728 Y65.789 E6.49996
G1 X96.597 Y66.599 E6.55479
G1 X96.489 Y67.540 E6.61807
G1 X96.375 Y68.303 E6.66959
G1 X96.375 Y68.560 E6.68674
G1 X96.322 Y68.927 E6.71152
G1 X96.187 Y69.541 E6.75353
G1 X96.400 Y70.225 E6.80140
G1 X96.568 Y70.457 E6.82049
G1 X96.865 Y70.767 E6.84920
G1 X97.246 Y71.006 E6.87926
G1 X97.663 Y71.222 E6.91062
G1 X98.263 Y71.492 E6.95461
G1 X98.573 Y71.726 E6.98054
G1 X98.894 Y71.859 E7.00373
G1 X99.490 Y71.842 E7.04356
G1 X99.928 Y71.410 E7.08470
G1 X100.054 Y71.137 E7.10478
G1 X100.313 Y70.384 E7.15799
G1 X100.424 Y70.221 E7.17114
G1 X100.560 Y69.922 E7.19309
G1 X100.729 Y69.655 E7.21425
G1 X101.071 Y69.200 E7.25226
G1 X101.870 Y68.414 E7.32708
G1 X102.408 Y67.969 E7.37377
G1 X102.974 Y67.556 E7.42056
G1 X103.729 Y67.045 E7.48147
G1 X105.253 Y66.300 E7.59480
G1 X105.766 Y66.318 E7.62910
G1 X106.006 Y66.272 E7.64545
G1 X106.507 Y66.214 E7.67914
G1 X107.446 Y65.827 E7.74698
G1 X107.808 Y65.546 E7.77760
G1 X108.233 Y65.136 E7.81700
G1 X108.661 Y64.541 E7.86598
G1 X108.948 Y64.075 E7.90260
G1 X109.205 Y63.622 E7.93735
G1 X109.546 Y62.925 E7.98919
G1 X109.670 Y62.764 E8.00276
G1 X109.852 Y62.358 E8.03249
G1 X109.849 Y62.064 E8.05214
G1 X109.895 Y61.835 E8.06771
G1 X109.791 Y61.459 E8.09378
G1 X109.479 Y61.005 E8.13061
G1 X109.195 Y60.053 E8.19697
G1 X109.036 Y59.630 E8.22719
G1 X108.852 Y59.227 E8.25675
G1 X109.139 Y59.016 E8.28053
G1 X109.251 Y59.121 E8.29075
G1 X109.483 Y59.237 E8.30814
G1 X109.858 Y59.312 E8.33368
G1 X110.455 Y59.322 E8.37355
G1 X110.928 Y59.241 E8.40558
G1 X111.209 Y59.156 E8.42520
G1 X111.361 Y59.086 E8.43640
G1 X111.704 Y58.896 E8.46259
