; generated by Slic3r 1.1.7 on 2015-10-14 at 09:33:55

; perimeters extrusion width = 0.30mm
; infill extrusion width = 0.31mm
; solid infill extrusion width = 0.31mm
; top infill extrusion width = 0.31mm

G21 ; set units to millimeters
M107
M190 S60 ; wait for bed temperature to be reached
M104 S195 ; set temperature
; [mm] mode
G21
; Relative
G91 
G1 Z20
G90
G28
G29 

; up Z 5
G1 Z5 

; absolute mode
G90
G92 E0
M82


M109 S195 ; wait for temperature to be reached
G90 ; use absolute coordinates
G92 E0
M82 ; use absolute distances for extrusion
G1 F1800.000 E-0.10000
G92 E0
G1 Z0.300 F7800.000
G1 X66.103 Y51.466 F7800.000
G1 E0.10000 F1800.000
G1 X88.767 Y22.356 E2.56466 F1080.000
G1 X89.543 Y21.452 E2.64421
G1 X90.010 Y20.987 E2.68824
G1 X91.278 Y19.800 E2.80429
G1 X91.838 Y19.311 E2.85397
G1 X92.452 Y18.824 E2.90631
G1 X93.210 Y18.292 E2.96814
G1 X94.206 Y17.723 E3.04480
G1 X95.407 Y17.230 E3.13152
G1 X95.631 Y17.160 E3.14720
G1 X97.368 Y16.848 E3.26513
G1 X97.558 Y16.838 E3.27784
G1 X99.725 Y17.059 E3.42337
G1 X99.885 Y17.101 E3.43442 F1080.000
G1 X101.250 Y17.615 E3.53181
G1 X108.014 Y21.080 E4.03950
G1 X114.220 Y25.527 E4.54959
G1 X119.705 Y30.888 E5.06195
G1 X124.313 Y37.067 E5.57689
G1 X127.892 Y43.938 E6.09449
G1 X130.301 Y51.313 E6.61275
G1 X131.443 Y58.895 E7.12502
G1 X131.276 Y66.590 E7.63920
G1 X131.189 Y67.132 E7.67585
G1 X129.755 Y74.184 E8.15661
G1 X129.513 Y74.886 E8.20623
G1 X126.899 Y81.360 E8.67267
G1 X126.413 Y82.243 E8.73993
G1 X122.625 Y88.089 E9.20531
G1 X121.931 Y88.921 E9.27768
G1 X117.136 Y93.846 E9.73691
G1 X116.177 Y94.624 E9.81943
G1 X110.562 Y98.423 E10.27232
G1 X109.324 Y99.070 E10.36562
G1 X103.118 Y101.570 E10.81259
G1 X101.626 Y101.988 E10.91615
G1 X95.009 Y103.078 E11.36409
G1 X93.401 Y103.157 E11.47165
G1 X86.691 Y102.721 E11.92086
G1 X85.046 Y102.416 E12.03267
G1 X78.610 Y100.410 E12.48303
G1 X77.020 Y99.689 E12.59964
G1 X71.254 Y96.157 E13.05136
G1 X69.836 Y95.012 E13.17315
G1 X65.150 Y90.108 E13.62628
G1 X64.081 Y88.657 E13.74669
G1 X60.812 Y82.566 E14.20849
G1 X60.215 Y81.060 E14.31674
G1 X60.089 Y80.552 E14.35170
G1 X58.707 Y74.006 E14.79865
G1 X58.555 Y72.545 E14.89676
G1 X58.583 Y71.772 E14.94846
G1 X59.187 Y65.078 E15.39748
G1 X59.415 Y63.826 E15.48247
G1 X59.764 Y62.804 E15.55459
G1 X62.418 Y56.594 E16.00575
G1 X63.053 Y55.426 E16.09457
G1 X63.414 Y54.919 E16.13618
G1 X66.075 Y51.502 E16.42551
G1 X66.525 Y51.795 F7800.000
G1 X89.185 Y22.691 E18.88968 F1080.000
G1 X89.923 Y21.829 E18.96541
G1 X90.377 Y21.378 E19.00821
G1 X91.634 Y20.200 E19.12327
G1 X92.176 Y19.726 E19.17138
G1 X92.769 Y19.256 E19.22192
G1 X93.493 Y18.747 E19.28109
G1 X94.437 Y18.207 E19.35371
G1 X95.567 Y17.741 E19.43535
G1 X95.791 Y17.671 E19.45103
G1 X97.396 Y17.382 E19.56003
G1 X97.586 Y17.372 E19.57274
G1 X99.589 Y17.578 E19.70724
G1 X99.749 Y17.620 E19.71829 F1080.000
G1 X101.010 Y18.094 E19.80831
G1 X107.706 Y21.518 E20.31072
G1 X113.850 Y25.914 E20.81539
G1 X119.279 Y31.213 E21.32221
G1 X123.841 Y37.320 E21.83145
G1 X127.385 Y44.111 E22.34318
G1 X129.773 Y51.400 E22.85557
G1 X130.907 Y58.902 E23.36247
G1 X130.746 Y66.516 E23.87119
G1 X130.663 Y67.028 E23.90586
G1 X129.245 Y74.020 E24.38247
G1 X129.016 Y74.687 E24.42960
G1 X126.414 Y81.132 E24.89391
G1 X125.963 Y81.952 E24.95646
G1 X122.199 Y87.764 E25.41903
G1 X121.547 Y88.548 E25.48712
G1 X116.767 Y93.458 E25.94495
G1 X115.877 Y94.181 E26.02155
G1 X110.268 Y97.975 E26.47393
G1 X109.124 Y98.573 E26.56016
G1 X102.918 Y101.073 E27.00713
G1 X101.538 Y101.460 E27.10284
G1 X94.922 Y102.550 E27.55078
G1 X93.436 Y102.623 E27.65019
G1 X86.726 Y102.187 E28.09940
G1 X85.205 Y101.905 E28.20275
G1 X78.769 Y99.899 E28.65311
G1 X77.300 Y99.232 E28.76088
G1 X71.534 Y95.700 E29.21260
G1 X70.223 Y94.642 E29.32516
G1 X65.537 Y89.738 E29.77830
G1 X64.549 Y88.397 E29.88958
G1 X61.284 Y82.313 E30.35085
G1 X60.732 Y80.921 E30.45090
G1 X60.613 Y80.441 E30.48391
G1 X59.231 Y73.895 E30.93086
G1 X59.090 Y72.545 E31.02154
G1 X59.117 Y71.820 E31.07003
G1 X59.721 Y65.126 E31.51904
G1 X59.931 Y63.969 E31.59760
G1 X60.256 Y63.015 E31.66494
G1 X62.910 Y56.805 E32.11610
G1 X63.497 Y55.725 E32.19819
G1 X63.837 Y55.248 E32.23731
G1 X66.498 Y51.831 E32.52665
G1 X66.739 Y51.582 F6240.000 E32.43165
G1 F1800.000 E32.42665
G92 E0
G1 X90.287 Y67.290 F7800.000
G1 E0.10000 F1800.000
G1 X90.713 Y67.290 E0.12843 F540.000
G1 X89.979 Y68.858 E0.24410
G1 X89.734 Y69.209 E0.27267
G1 X89.432 Y69.508 E0.30111
G1 X89.086 Y69.751 E0.32930
G1 X88.701 Y69.931 E0.35772
G1 X88.292 Y70.040 E0.38603
G1 X87.866 Y70.080 E0.41459
G1 X87.440 Y70.040 E0.44315
G1 X87.031 Y69.931 E0.47146
G1 X86.646 Y69.751 E0.49988
G1 X86.300 Y69.508 E0.52807
G1 X85.998 Y69.209 E0.55650
G1 X85.753 Y68.858 E0.58509
G1 X85.574 Y68.474 E0.61339
G1 X85.464 Y68.062 E0.64191
G1 X85.427 Y67.639 E0.67027
G1 X85.464 Y67.218 E0.69848
G1 X85.573 Y66.807 E0.72689
G1 X85.753 Y66.420 E0.75543
G1 X85.999 Y66.070 E0.78399
G1 X86.300 Y65.772 E0.81231
G1 X86.646 Y65.529 E0.84050
G1 X87.031 Y65.349 E0.86892
G1 X87.443 Y65.239 E0.89743
G1 X87.866 Y65.202 E0.92577
G1 X88.289 Y65.239 E0.95412
G1 X88.701 Y65.349 E0.98263
G1 X89.086 Y65.529 E1.01105
G1 X89.432 Y65.772 E1.03924
G1 X89.733 Y66.070 E1.06756
G1 X89.979 Y66.420 E1.09612
G1 X90.159 Y66.807 E1.12466
G1 X90.276 Y67.246 E1.15502
G1 X89.741 Y67.337 F7800.000
G1 X89.783 Y67.825 E1.18775 F378.000
G1 X89.871 Y67.825 E1.19358
G1 X89.513 Y68.589 E1.24994
G1 X89.323 Y68.863 E1.27219
G1 X89.087 Y69.096 E1.29433
G1 X88.817 Y69.286 E1.31638
G1 X88.517 Y69.426 E1.33850
G1 X88.197 Y69.511 E1.36063
G1 X87.866 Y69.542 E1.38284
G1 X87.535 Y69.511 E1.40505
G1 X87.215 Y69.426 E1.42718
G1 X86.915 Y69.286 E1.44930
G1 X86.645 Y69.096 E1.47134
G1 X86.409 Y68.863 E1.49348
G1 X86.219 Y68.589 E1.51574
G1 X86.079 Y68.290 E1.53782
G1 X85.993 Y67.969 E1.56002
G1 X85.965 Y67.639 E1.58215
G1 X85.993 Y67.311 E1.60414
G1 X86.079 Y66.990 E1.62631
G1 X86.219 Y66.688 E1.64855
G1 X86.410 Y66.417 E1.67073
G1 X86.645 Y66.184 E1.69283
G1 X86.915 Y65.994 E1.71487
G1 X87.215 Y65.854 E1.73699
G1 X87.573 Y65.765 E1.76162
G1 X87.866 Y65.740 E1.78129 F378.000
G1 X88.196 Y65.768 E1.80341
G1 X88.517 Y65.854 E1.82561
G1 X88.817 Y65.994 E1.84773
G1 X89.087 Y66.184 E1.86978
G1 X89.322 Y66.417 E1.89188
G1 X89.513 Y66.688 E1.91406
G1 X89.653 Y66.990 E1.93630
G1 X89.734 Y67.293 E1.95722
G1 X89.467 Y67.071 F6240.000 E1.86222
G1 F1800.000 E1.85722
G92 E0
G1 X87.457 Y65.494 F7800.000
G1 X92.700 Y91.981 F7800.000
G1 E0.10000 F1800.000
G1 X94.170 Y91.949 E0.19824 F540.000
G1 X94.615 Y91.902 E0.22813
G1 X94.004 Y93.636 E0.35092
G1 X93.776 Y94.186 E0.39070
G1 X93.459 Y93.580 E0.43634
G1 X92.720 Y92.021 E0.55164
G1 X91.633 Y91.468 F7800.000
G1 X94.136 Y91.414 E0.71889 F540.000
G1 X95.742 Y91.247 E0.82672
G1 X95.361 Y91.697 E0.86612
G1 X95.154 Y92.058 E0.89394
G1 X95.000 Y92.414 E0.91983
G1 X94.503 Y93.830 E1.02008
G1 X94.348 Y94.204 E1.04714
G1 X94.179 Y94.562 E1.07361
G1 X94.006 Y94.872 E1.09730
G1 X93.825 Y95.146 E1.11922
G1 X93.576 Y94.831 E1.14602
G1 X93.169 Y94.181 E1.19724
G1 X92.810 Y93.469 E1.25048
G1 X92.347 Y92.476 E1.32375
G1 X92.149 Y92.136 E1.35003
G1 X91.661 Y91.503 E1.40337
G1 X98.432 Y91.253 F7800.000
G1 X100.317 Y90.763 E1.53344 F540.000
G1 X100.255 Y91.094 E1.55591
G1 X100.076 Y92.597 E1.65699
G1 X99.978 Y93.162 E1.69536
G1 X99.521 Y92.622 E1.74268
G1 X98.461 Y91.287 E1.85650
G1 X97.282 Y90.998 F7800.000
G1 X99.886 Y90.322 E2.03627 F540.000
G1 X101.021 Y89.909 E2.11696
G1 X100.784 Y91.177 E2.20316
G1 X100.658 Y92.285 E2.27764
G1 X100.536 Y93.076 E2.33113
G1 X100.449 Y93.461 E2.35745
G1 X100.261 Y94.103 E2.40220
G1 X99.912 Y93.816 E2.43239
G1 X99.367 Y93.270 E2.48390
G1 X98.178 Y91.786 E2.61094
G1 X97.906 Y91.504 E2.63711
G1 X97.317 Y91.026 E2.68779
G1 X103.881 Y89.279 F7800.000
G1 X104.770 Y88.856 E2.75356 F540.000
G1 X105.630 Y88.345 E2.82039
G1 X105.643 Y88.748 E2.84731
G1 X105.785 Y90.257 E2.94856
G1 X105.807 Y90.801 E2.98498
G1 X105.221 Y90.360 E3.03401
G1 X104.355 Y89.643 E3.10911
G1 X103.916 Y89.306 E3.14605
G1 X102.655 Y89.268 F7800.000
G1 X104.518 Y88.383 E3.28382 F540.000
G1 X106.238 Y87.361 E3.41748
G1 X106.165 Y88.331 E3.48249
G1 X106.178 Y88.715 E3.50817
G1 X106.290 Y89.831 E3.58308
G1 X106.336 Y90.634 E3.63682
G1 X106.333 Y91.024 E3.66288
G1 X106.285 Y91.667 E3.70594
G1 X105.859 Y91.448 E3.73792
G1 X105.213 Y91.024 E3.78956
G1 X103.726 Y89.835 E3.91672
G1 X103.396 Y89.618 E3.94312
G1 X102.696 Y89.287 E3.99487
G1 X108.834 Y86.200 F7800.000
G1 X110.336 Y84.903 E4.12743 F540.000
G1 X110.437 Y85.312 E4.15555
G1 X110.887 Y86.774 E4.25773
G1 X111.013 Y87.277 E4.29238
G1 X110.322 Y86.949 E4.34348
G1 X109.320 Y86.427 E4.41896
G1 X108.875 Y86.219 E4.45179
G1 X107.492 Y86.515 F7800.000
G1 X107.332 Y85.952 E4.49090 F540.000
G1 X108.304 Y85.950 E4.55584
G1 X110.819 Y83.779 E4.77776
G1 X110.805 Y84.397 E4.81904
G1 X110.863 Y84.800 E4.84622
G1 X110.954 Y85.171 E4.87173
G1 X111.291 Y86.249 E4.94718
G1 X111.502 Y87.025 E5.00095
G1 X111.577 Y87.406 E5.02685
G1 X111.658 Y88.023 E5.06842
G1 X111.174 Y87.887 E5.10197
G1 X110.450 Y87.602 E5.15397
G1 X109.082 Y86.908 E5.25642
G1 X108.741 Y86.748 E5.28159
G1 X108.370 Y86.610 E5.30805
G1 X107.949 Y86.515 E5.33689
G1 X107.537 Y86.515 E5.36437
G1 X113.017 Y82.147 F7800.000
G1 X114.268 Y80.586 E5.49796 F540.000
G1 X114.446 Y80.967 E5.52606
G1 X115.180 Y82.317 E5.62871
G1 X115.392 Y82.767 E5.66196
G1 X113.061 Y82.157 E5.82292
G1 X111.861 Y82.641 F7800.000
G1 X112.292 Y82.196 E5.86432 F540.000
G1 X113.933 Y80.146 E6.03973
G1 X114.491 Y79.307 E6.10706
G1 X114.626 Y80.002 E6.15436
G1 X114.763 Y80.381 E6.18129
G1 X114.925 Y80.726 E6.20675
G1 X115.474 Y81.723 E6.28275
G1 X115.832 Y82.443 E6.33648
G1 X115.980 Y82.801 E6.36238
G1 X116.172 Y83.367 E6.40231
G1 X115.645 Y83.326 E6.43762
G1 X114.879 Y83.190 E6.48958
G1 X113.028 Y82.699 E6.61752
G1 X112.633 Y82.641 E6.64421
G1 X111.906 Y82.641 E6.69274
G1 X116.728 Y76.718 F7800.000
G1 X116.488 Y76.456 E6.71651 F540.000
G1 X117.003 Y76.180 E6.75556
G1 X117.275 Y75.550 E6.80138
G1 X117.542 Y75.911 E6.83138
G1 X118.520 Y77.101 E6.93427
G1 X118.799 Y77.480 E6.96569
G1 X116.836 Y77.351 E7.09707
G1 X116.368 Y77.339 E7.12840
G1 X116.706 Y76.757 E7.17339
G1 X116.067 Y76.790 F7800.000
G1 X115.627 Y76.310 E7.21690 F540.000
G1 X116.586 Y75.796 E7.28955
G1 X117.250 Y74.259 E7.40141
G1 X117.531 Y74.932 E7.45016
G1 X117.739 Y75.276 E7.47703
G1 X117.965 Y75.583 E7.50250
G1 X118.695 Y76.460 E7.57870
G1 X119.186 Y77.103 E7.63276
G1 X119.396 Y77.421 E7.65822
G1 X119.682 Y77.921 E7.69668
G1 X119.131 Y77.983 E7.73373
G1 X118.351 Y77.994 E7.78586
G1 X116.811 Y77.886 E7.88897
G1 X116.433 Y77.877 E7.91423
G1 X116.035 Y77.901 E7.94087
G1 X115.336 Y78.050 E7.98866
G1 X116.045 Y76.829 E8.08300
G1 X118.689 Y71.972 F7800.000
G1 X119.127 Y70.651 E8.17597 F540.000
G1 X119.276 Y70.021 E8.21921
G1 X119.630 Y70.349 E8.25148
G1 X121.146 Y71.625 E8.38385
G1 X120.687 Y71.706 E8.41497
G1 X119.154 Y71.890 E8.51814
G1 X118.733 Y71.964 E8.54667
G1 X117.826 Y72.876 F7800.000
G1 X118.611 Y70.505 E8.71351 F540.000
G1 X119.020 Y68.774 E8.83238
G1 X119.434 Y69.392 E8.88207
G1 X119.704 Y69.688 E8.90887
G1 X119.984 Y69.947 E8.93432
G1 X121.175 Y70.942 E9.03798
G1 X121.730 Y71.488 E9.09001
G1 X122.088 Y71.917 E9.12731
G1 X121.537 Y72.079 E9.16570
G1 X121.164 Y72.166 E9.19124
G1 X120.770 Y72.235 E9.21802
G1 X119.233 Y72.420 E9.32142
G1 X118.857 Y72.486 E9.34694
G1 X118.468 Y72.591 E9.37382
G1 X117.868 Y72.858 E9.41772
G1 X120.019 Y66.247 F7800.000
G1 X120.156 Y65.330 E9.47969 F540.000
G1 X120.262 Y64.227 E9.55371
G1 X120.668 Y64.484 E9.58588
G1 X122.364 Y65.456 E9.71647
G1 X121.535 Y65.748 E9.77523
G1 X120.425 Y66.093 E9.85283
G1 X120.061 Y66.231 E9.87889
G1 X119.747 Y63.983 F7800.000
G1 X119.115 Y63.723 E9.92456 F540.000
G1 X119.724 Y62.838 E9.99631
G1 X119.997 Y63.274 E10.03069
G1 X120.301 Y63.580 E10.05952
G1 X120.619 Y63.819 E10.08606
G1 X120.943 Y64.025 E10.11172
G1 X121.947 Y64.587 E10.18857
G1 X122.632 Y65.010 E10.24240
G1 X122.939 Y65.231 E10.26764
G1 X123.352 Y65.574 E10.30348
G1 X122.812 Y65.842 E10.34374
G1 X122.459 Y65.992 E10.36934
G1 X121.697 Y66.259 E10.42330
G1 X120.603 Y66.598 E10.49982
G1 X120.247 Y66.733 E10.52523
G1 X119.881 Y66.912 E10.55245
G1 X119.317 Y67.314 E10.59874
G1 X119.624 Y65.265 E10.73718
G1 X119.743 Y64.028 E10.82020
G1 X120.299 Y60.365 F7800.000
G1 X120.284 Y59.644 E10.86837 F540.000
G1 X120.146 Y58.315 E10.95764
G1 X120.648 Y58.515 E10.99367
G1 X122.465 Y59.168 E11.12268
G1 X122.016 Y59.431 E11.15745
G1 X120.638 Y60.157 E11.26150
G1 X120.337 Y60.342 E11.28509
G1 X119.787 Y61.554 F7800.000
G1 X119.749 Y59.677 E11.41051 F540.000
G1 X119.499 Y57.256 E11.57312
G1 X120.122 Y57.690 E11.62387
G1 X120.480 Y57.871 E11.65064
G1 X122.308 Y58.537 E11.78061
G1 X123.010 Y58.856 E11.83215
G1 X123.455 Y59.110 E11.86639
G1 X122.952 Y59.484 E11.90828
G1 X122.627 Y59.694 E11.93408
G1 X122.279 Y59.898 E11.96111
G1 X120.906 Y60.621 E12.06474
G1 X120.578 Y60.822 E12.09040
G1 X120.255 Y61.067 E12.11751
G1 X119.818 Y61.522 E12.15964
G1 X119.548 Y54.488 F7800.000
G1 X119.484 Y54.143 E12.18303 F540.000
G1 X119.040 Y52.509 E12.29618
G1 X119.590 Y52.624 E12.33374
G1 X121.471 Y52.959 E12.46139
G1 X121.054 Y53.311 E12.49786
G1 X119.583 Y54.459 E12.62252
G1 X119.245 Y55.787 F7800.000
G1 X118.961 Y54.263 E12.72612 F540.000
G1 X118.232 Y51.586 E12.91143
G1 X118.936 Y51.905 E12.96308
G1 X119.319 Y52.020 E12.98973
G1 X121.235 Y52.368 E13.11987
G1 X121.980 Y52.566 E13.17135
G1 X122.442 Y52.733 E13.20416
G1 X121.988 Y53.203 E13.24779
G1 X121.702 Y53.466 E13.27379
G1 X121.392 Y53.727 E13.30082
G1 X120.458 Y54.442 E13.37944
G1 X119.865 Y54.943 E13.43127
G1 X119.602 Y55.234 E13.45750
G1 X119.270 Y55.749 E13.49846
G1 X117.834 Y48.801 F7800.000
G1 X116.972 Y46.963 E13.63408 F540.000
G1 X119.446 Y47.006 E13.79937
G1 X119.073 Y47.445 E13.83784
G1 X117.864 Y48.768 E13.95757
G1 X116.979 Y49.821 F7800.000
G1 X117.237 Y48.790 E14.02861 F540.000
G1 X116.017 Y46.187 E14.22061
G1 X116.795 Y46.386 E14.27422
G1 X117.192 Y46.435 E14.30094
G1 X119.144 Y46.462 E14.43136
G1 X119.905 Y46.535 E14.48245
G1 X120.341 Y46.619 E14.51213
G1 X119.981 Y47.181 E14.55673
G1 X119.741 Y47.486 E14.58267
G1 X118.428 Y48.939 E14.71353
G1 X118.187 Y49.244 E14.73947
G1 X117.966 Y49.595 E14.76718
G1 X117.887 Y49.794 E14.78149
G1 X117.024 Y49.820 E14.83918
G1 X115.150 Y43.540 F7800.000
G1 X114.889 Y43.083 E14.87435 F540.000
G1 X114.024 Y41.818 E14.97673
G1 X116.473 Y41.468 E15.14196
G1 X116.164 Y41.979 E15.18185
G1 X115.174 Y43.502 E15.30320
G1 X115.303 Y44.886 F7800.000
G1 X114.435 Y43.367 E15.42007 F540.000
G1 X112.958 Y41.207 E15.59490
G1 X113.780 Y41.276 E15.64996
G1 X114.179 Y41.258 E15.67667
G1 X116.119 Y40.974 E15.80763
G1 X116.873 Y40.923 E15.85812
G1 X117.297 Y40.937 E15.88650
G1 X117.170 Y41.259 E15.90960
G1 X116.829 Y41.915 E15.95900
G1 X115.767 Y43.565 E16.09011
G1 X115.583 Y43.909 E16.11618
G1 X115.428 Y44.290 E16.14364
G1 X115.312 Y44.842 E16.18135
G1 X111.693 Y38.708 F7800.000
G1 X110.326 Y37.186 E16.31805 F540.000
G1 X110.900 Y37.024 E16.35788
G1 X112.020 Y36.656 E16.43667
G1 X112.660 Y36.469 E16.48120
G1 X111.710 Y38.667 E16.64114
G1 X112.049 Y40.032 F7800.000
G1 X111.137 Y38.892 E16.73867 F540.000
G1 X110.063 Y37.695 E16.84609
G1 X109.161 Y36.767 E16.93257
G1 X109.991 Y36.697 E16.98824
G1 X110.377 Y36.614 E17.01462
G1 X112.255 Y36.029 E17.14603
G1 X112.986 Y35.865 E17.19607
G1 X113.385 Y35.819 E17.22292
G1 X113.305 Y36.178 E17.24753
G1 X113.069 Y36.882 E17.29714
G1 X112.427 Y38.330 E17.40293
G1 X112.156 Y39.052 E17.45445
G1 X112.067 Y39.458 E17.48223
G1 X112.051 Y39.987 E17.51757
G1 X107.496 Y34.512 F7800.000
G1 X106.456 Y33.622 E17.60900 F540.000
G1 X105.895 Y33.198 E17.65600
G1 X108.114 Y32.124 E17.82063
G1 X107.507 Y34.468 E17.98237
G1 X107.974 Y35.625 F7800.000
G1 X106.120 Y34.040 E18.14535 F540.000
G1 X104.691 Y32.958 E18.26511
G1 X105.533 Y32.747 E18.32312
G1 X105.901 Y32.604 E18.34949
G1 X107.672 Y31.740 E18.48111
G1 X108.366 Y31.470 E18.53087
G1 X108.733 Y31.368 E18.55633
G1 X108.703 Y31.761 E18.58264
G1 X108.574 Y32.497 E18.63257
G1 X108.075 Y34.399 E18.76394
G1 X108.009 Y34.790 E18.79041
