; generated by Slic3r 1.1.7 on 2015-11-10 at 11:45:05

; perimeters extrusion width = 0.30mm
; infill extrusion width = 0.31mm
; solid infill extrusion width = 0.31mm
; top infill extrusion width = 0.31mm

G21 ; set units to millimeters
M107
M190 S60 ; wait for bed temperature to be reached
M104 S205 ; set temperature
; [mm] mode
G21
; Relative
G91 
G1 Z20
G90
G28
G29 

; up Z 5
G1 Z5 

; absolute mode
G90
G92 E0
M82


M109 S205 ; wait for temperature to be reached
G90 ; use absolute coordinates
G92 E0
M82 ; use absolute distances for extrusion
G1 F1800.000 E-0.10000
G92 E0
G1 Z0.300 F7800.000
G1 X56.576 Y78.849 F7800.000
G1 E0.10000 F1800.000
G1 X56.822 Y78.673 E0.12021 F1080.000
G1 X58.954 Y77.636 E0.27854
G1 X60.935 Y77.352 E0.41228
G1 X100.611 Y77.343 E3.06282
G1 X106.206 Y77.367 E3.43662
G1 X106.786 Y77.415 E3.47550 F1080.000
G1 X108.834 Y77.899 E3.61605
G1 X109.313 Y78.091 E3.65053
G1 X111.923 Y79.907 E3.86294
G1 X112.508 Y80.564 E3.92171
G1 X132.485 Y104.635 E6.01145
G1 X133.578 Y106.446 E6.15275
G1 X135.544 Y111.196 E6.49618
G1 X135.993 Y112.348 E6.57880
G1 X136.447 Y115.450 E6.78825
G1 X136.414 Y115.870 E6.81640
G1 X135.835 Y118.169 E6.97473
G1 X134.529 Y120.146 E7.13306
G1 X132.556 Y121.626 E7.29780
G1 X132.023 Y121.896 E7.33772
G1 X128.832 Y122.657 E7.55686
G1 X85.319 Y122.634 E10.46373
G1 X83.548 Y122.452 E10.58270
G1 X81.671 Y122.049 E10.71099
G1 X79.399 Y121.264 E10.87156
G1 X77.962 Y120.577 E10.97792
G1 X76.871 Y119.929 E11.06270
G1 X74.611 Y118.192 E11.25317
G1 X73.403 Y116.933 E11.36972
G1 X72.543 Y115.849 E11.46214
G1 X57.202 Y94.536 E13.21645
G1 X56.823 Y93.957 E13.26269
G1 X56.209 Y92.798 E13.35034
G1 X54.085 Y87.686 E13.72015
G1 X53.557 Y85.407 E13.87644
G1 X53.545 Y85.212 E13.88949
G1 X53.798 Y82.855 E14.04782
G1 X54.264 Y81.644 E14.13453
G1 X54.352 Y81.466 E14.14780
G1 X56.547 Y78.883 E14.37424
G1 X56.888 Y79.284 F7800.000
G1 X57.134 Y79.108 E14.39445 F1080.000
G1 X59.189 Y78.126 E14.54662
G1 X60.936 Y77.888 E14.66436
G1 X100.611 Y77.879 E17.31490
G1 X106.162 Y77.901 E17.68575
G1 X106.742 Y77.949 E17.72463 F1080.000
G1 X108.635 Y78.396 E17.85453
G1 X109.114 Y78.588 E17.88901
G1 X111.526 Y80.267 E18.08533
G1 X112.096 Y80.906 E18.14255
G1 X132.073 Y104.977 E20.23228
G1 X133.083 Y106.651 E20.36289
G1 X135.049 Y111.401 E20.70631
G1 X135.493 Y112.541 E20.78808
G1 X135.913 Y115.408 E20.98167
G1 X135.880 Y115.828 E21.00982
G1 X135.308 Y118.033 E21.16199
G1 X134.015 Y119.908 E21.31416
G1 X132.314 Y121.148 E21.45475
G1 X131.781 Y121.418 E21.49466
G1 X128.832 Y122.121 E21.69720
G1 X85.362 Y122.100 E24.60123
G1 X83.648 Y121.926 E24.71635
G1 X81.830 Y121.538 E24.84054
G1 X79.630 Y120.781 E24.99596
G1 X78.193 Y120.094 E25.10232
G1 X77.185 Y119.495 E25.18067
G1 X74.988 Y117.811 E25.36563
G1 X73.820 Y116.597 E25.47816
G1 X72.978 Y115.536 E25.56865
G1 X57.650 Y94.243 E27.32137
G1 X57.271 Y93.664 E27.36761
G1 X56.704 Y92.592 E27.44862
G1 X54.580 Y87.480 E27.81843
G1 X54.092 Y85.374 E27.96289
G1 X54.080 Y85.179 E27.97594
G1 X54.744 Y81.881 E28.20066
G1 X54.832 Y81.703 E28.21393
G1 X56.859 Y79.319 E28.42299
G1 X57.205 Y79.309 F6240.000 E28.32799
G1 F1800.000 E28.32299
G92 E0
G1 X127.656 Y114.214 F7800.000
G1 E0.10000 F1800.000
G1 X85.936 Y114.214 E2.88715 F540.000
G1 X85.048 Y114.143 E2.94665
G1 X84.106 Y113.965 E3.01071
G1 X82.952 Y113.606 E3.09140
G1 X81.717 Y113.015 E3.18287
G1 X80.474 Y112.116 E3.28534
G1 X79.929 Y111.577 E3.33654
G1 X79.399 Y110.919 E3.39302
G1 X78.916 Y110.151 E3.45362
G1 X78.501 Y109.280 E3.51806
G1 X78.327 Y108.717 E3.55742
G1 X78.220 Y108.040 E3.60322
G1 X78.206 Y107.113 E3.66517
G1 X78.377 Y105.989 E3.74113
G1 X78.826 Y104.693 E3.83274
G1 X79.675 Y103.220 E3.94633
G1 X80.253 Y102.473 E4.00941
G1 X80.996 Y101.669 E4.08259
G1 X88.202 Y94.902 E4.74296
G1 X88.902 Y94.300 E4.80465
G1 X89.371 Y93.216 E4.88354
G1 X89.405 Y92.409 E4.93749
G1 X89.222 Y91.543 E4.99665
G1 X88.660 Y90.665 E5.06632
G1 X87.919 Y89.982 E5.13362
G1 X86.915 Y89.661 E5.20405
G1 X64.114 Y89.681 E6.72728
G1 X63.956 Y89.440 E6.74651
G1 X62.441 Y85.795 E7.01026
G1 X88.438 Y85.792 E8.74699
G1 X88.923 Y85.846 E8.77959
G1 X90.528 Y86.947 E8.90958
G1 X91.202 Y87.564 E8.97065
G1 X91.866 Y88.318 E9.03778
G1 X92.426 Y89.157 E9.10516
G1 X92.842 Y90.106 E9.17439
G1 X93.007 Y90.700 E9.21555
G1 X93.234 Y92.488 E9.33598
G1 X93.194 Y93.562 E9.40775
G1 X92.972 Y94.733 E9.48738
G1 X92.514 Y95.916 E9.57216
G1 X91.758 Y97.070 E9.66430
G1 X82.522 Y105.808 E10.51373
G1 X82.171 Y107.224 E10.61113
G1 X82.617 Y108.654 E10.71123
G1 X83.419 Y109.637 E10.79598
G1 X84.219 Y110.058 E10.85634
G1 X85.002 Y110.186 E10.90937
G1 X109.419 Y110.182 E12.54058
G1 X110.543 Y109.864 E12.61860
G1 X111.101 Y108.559 E12.71340
G1 X110.819 Y107.432 E12.79103
G1 X101.897 Y85.786 E14.35513
G1 X105.566 Y85.786 E14.60025
G1 X105.886 Y85.812 E14.62167
G1 X114.922 Y107.743 E16.20627
G1 X115.408 Y108.722 E16.27925
G1 X116.048 Y109.543 E16.34885
G1 X116.669 Y109.993 E16.40005
G1 X117.364 Y110.177 E16.44805
G1 X125.981 Y110.168 E17.02374
G1 X127.639 Y114.173 E17.31328
G1 X128.445 Y114.750 F7800.000
G1 X85.914 Y114.750 E20.15453 F540.000
G1 X84.976 Y114.675 E20.21739
G1 X83.976 Y114.485 E20.28543
G1 X82.756 Y114.106 E20.37076
G1 X81.443 Y113.477 E20.46804
G1 X80.127 Y112.526 E20.57650
G1 X79.531 Y111.937 E20.63248
G1 X78.962 Y111.230 E20.69307
G1 X78.446 Y110.410 E20.75783
G1 X78.000 Y109.476 E20.82697
G1 X77.804 Y108.839 E20.87149
G1 X77.685 Y108.086 E20.92239
G1 X77.670 Y107.076 E20.98987
G1 X77.855 Y105.860 E21.07208
G1 X78.337 Y104.470 E21.17035
G1 X79.229 Y102.921 E21.28977
G1 X79.843 Y102.127 E21.35686
G1 X80.616 Y101.291 E21.43286
G1 X87.844 Y94.503 E22.09529
G1 X88.459 Y93.974 E22.14954
G1 X88.840 Y93.094 E22.21357
G1 X88.867 Y92.454 E22.25637
G1 X88.718 Y91.749 E22.30450
G1 X88.246 Y91.011 E22.36303
G1 X87.643 Y90.456 E22.41779
G1 X86.832 Y90.197 E22.47470
G1 X64.115 Y90.217 E23.99230
G1 X63.874 Y90.166 E24.00878
G1 X63.725 Y90.065 E24.02076
G1 X63.481 Y89.692 E24.05057
G1 X61.639 Y85.259 E24.37126
G1 X88.468 Y85.256 E26.16358
G1 X89.116 Y85.328 E26.20713
G1 X90.862 Y86.526 E26.34860
G1 X91.585 Y87.189 E26.41409
G1 X92.292 Y87.991 E26.48554
G1 X92.897 Y88.899 E26.55846
G1 X93.348 Y89.926 E26.63337
G1 X93.534 Y90.594 E26.67968
G1 X93.770 Y92.464 E26.80562
G1 X93.728 Y93.622 E26.88302
G1 X93.489 Y94.881 E26.96863
G1 X92.993 Y96.162 E27.06045
G1 X92.172 Y97.416 E27.16055
G1 X83.004 Y106.090 E28.00369
G1 X82.727 Y107.207 E28.08060
G1 X83.097 Y108.396 E28.16377
G1 X83.765 Y109.214 E28.23431
G1 X84.391 Y109.543 E28.28156
G1 X85.045 Y109.650 E28.32586
G1 X109.345 Y109.646 E29.94921
G1 X110.151 Y109.418 E30.00518
G1 X110.538 Y108.514 E30.07085
G1 X110.309 Y107.600 E30.13381
G1 X101.097 Y85.250 E31.74876
G1 X105.588 Y85.250 E32.04881
G1 X106.009 Y85.285 E32.07699
G1 X106.192 Y85.358 E32.09018
G1 X106.350 Y85.533 E32.10588
G1 X115.410 Y107.522 E33.69469
G1 X115.863 Y108.435 E33.76279
G1 X116.424 Y109.154 E33.82371
G1 X116.903 Y109.500 E33.86318
G1 X117.433 Y109.641 E33.89986
G1 X126.339 Y109.632 E34.49481
G1 X128.428 Y114.708 E34.86150
G1 X129.078 Y115.125 F7800.000
G1 X128.760 Y115.286 E34.88528 F378.000
G1 X85.893 Y115.286 E37.74906
G1 X84.905 Y115.207 E37.81527
G1 X83.846 Y115.006 E37.88729
G1 X82.560 Y114.606 E37.97727
G1 X81.168 Y113.940 E38.08036
G1 X79.780 Y112.936 E38.19480
G1 X79.133 Y112.296 E38.25556
G1 X78.526 Y111.542 E38.32026
G1 X77.976 Y110.669 E38.38919
G1 X77.500 Y109.671 E38.46302
G1 X77.281 Y108.960 E38.51271
G1 X77.150 Y108.133 E38.56870
G1 X77.133 Y107.040 E38.64170
G1 X77.332 Y105.731 E38.73017
G1 X77.847 Y104.247 E38.83511
G1 X78.783 Y102.622 E38.96036
G1 X79.434 Y101.781 E39.03145
G1 X80.235 Y100.914 E39.11028
G1 X87.486 Y94.105 E39.77477
G1 X88.017 Y93.648 E39.82157
G1 X88.309 Y92.973 E39.87074
G1 X88.329 Y92.499 E39.90239
G1 X88.214 Y91.956 E39.93950
G1 X87.832 Y91.358 E39.98690
G1 X87.368 Y90.930 E40.02910
G1 X86.749 Y90.732 E40.07250
G1 X64.059 Y90.752 E41.58827
G1 X63.660 Y90.668 E41.61550
G1 X63.336 Y90.449 E41.64167
G1 X63.005 Y89.944 E41.68200
G1 X60.836 Y84.724 E42.05964
G1 X88.497 Y84.721 E43.90754
G1 X89.308 Y84.810 E43.96204
G1 X91.196 Y86.106 E44.11499
G1 X91.968 Y86.813 E44.18490
G1 X92.718 Y87.664 E44.26068
G1 X93.369 Y88.641 E44.33914
G1 X93.854 Y89.745 E44.41972
G1 X94.060 Y90.488 E44.47119
G1 X94.307 Y92.440 E44.60264
G1 X94.262 Y93.682 E44.68566
G1 X94.006 Y95.029 E44.77724
G1 X93.472 Y96.409 E44.87611
G1 X92.585 Y97.762 E44.98417
G1 X83.486 Y106.371 E45.82102
G1 X83.283 Y107.191 E45.87745
G1 X83.578 Y108.137 E45.94368
G1 X84.111 Y108.790 E46.00002
G1 X84.563 Y109.029 E46.03417
G1 X85.089 Y109.115 E46.06972
G1 X109.271 Y109.110 E47.68521
G1 X109.759 Y108.972 E47.71914
G1 X109.975 Y108.470 E47.75567
G1 X109.799 Y107.768 E47.80397
G1 X100.414 Y84.999 E49.44920
G1 X100.436 Y84.753 E49.46574
G1 X100.639 Y84.714 E49.47953
G1 X105.611 Y84.714 E49.81166
G1 X106.133 Y84.758 E49.84670
G1 X106.506 Y84.907 E49.87354
G1 X106.810 Y85.242 E49.90373
G1 X115.898 Y107.301 E51.49752
G1 X116.319 Y108.148 E51.56075
G1 X116.800 Y108.765 E51.61297
G1 X117.136 Y109.008 E51.64073
G1 X117.503 Y109.106 E51.66608
G1 X126.351 Y109.097 E52.25720
G1 X126.591 Y109.168 E52.27389
G1 X126.796 Y109.335 E52.29156
G1 X128.761 Y114.084 E52.63492
G1 X129.093 Y114.941 E52.69630
G1 X129.082 Y115.080 E52.70561
G1 X128.787 Y115.054 F7800.000
G1 X126.527 Y112.449 F7800.000
G1 X124.616 Y110.538 E52.88616 F1080.000
G1 X123.851 Y110.539 E52.93726
G1 X127.067 Y113.755 E53.24118
G1 X126.392 Y113.846 E53.28668
G1 X123.086 Y110.539 E53.59908
G1 X122.321 Y110.540 E53.65018
G1 X125.627 Y113.846 E53.96250
G1 X124.861 Y113.846 E54.01365
G1 X121.556 Y110.541 E54.32590
G1 X120.791 Y110.542 E54.37700
G1 X124.095 Y113.846 E54.68917
G1 X123.330 Y113.846 E54.74032
G1 X120.026 Y110.543 E55.05242
G1 X119.261 Y110.543 E55.10352
G1 X122.564 Y113.846 E55.41555
G1 X121.798 Y113.846 E55.46670
G1 X118.496 Y110.544 E55.77866
G1 X117.731 Y110.545 E55.82976
G1 X121.032 Y113.846 E56.14164
G1 X120.267 Y113.846 E56.19279
G1 X116.840 Y110.419 E56.51657
G1 X114.852 Y108.431 F7800.000
G1 X109.369 Y102.948 E57.03459 F1080.000
G1 X108.832 Y101.646 F7800.000
G1 X114.238 Y107.052 E57.54532 F1080.000
G1 X113.702 Y105.750 F7800.000
G1 X108.295 Y100.343 E58.05609 F1080.000
G1 X107.759 Y99.041 F7800.000
G1 X113.165 Y104.447 E58.56689 F1080.000
G1 X112.629 Y103.145 F7800.000
G1 X107.222 Y97.738 E59.07772 F1080.000
G1 X106.685 Y96.436 F7800.000
G1 X112.092 Y101.843 E59.58858 F1080.000
G1 X111.556 Y100.541 F7800.000
G1 X106.148 Y95.133 E60.09948 F1080.000
G1 X105.611 Y93.831 F7800.000
G1 X111.019 Y99.238 E60.61040 F1080.000
G1 X110.483 Y97.936 F7800.000
G1 X105.074 Y92.528 E61.12136 F1080.000
G1 X104.538 Y91.225 F7800.000
G1 X109.946 Y96.634 E61.63235 F1080.000
G1 X109.410 Y95.332 F7800.000
G1 X104.001 Y89.923 E62.14336 F1080.000
G1 X103.464 Y88.620 F7800.000
G1 X108.873 Y94.030 E62.65441 F1080.000
G1 X108.337 Y92.727 F7800.000
G1 X102.927 Y87.318 E63.16550 F1080.000
G1 X102.529 Y86.154 F7800.000
G1 X107.800 Y91.425 E63.66350 F1080.000
G1 X107.264 Y90.123 F7800.000
G1 X103.295 Y86.154 E64.03848 F1080.000
G1 X104.060 Y86.154 E64.08963
G1 X106.727 Y88.821 E64.34158
G1 X106.191 Y87.519 F7800.000
G1 X104.826 Y86.154 E64.47049 F1080.000
G1 X105.654 Y86.216 E64.52597
G1 X105.595 Y86.158 E64.53151
G1 X105.654 Y86.216 F6240.000 E64.50877
G1 X105.391 Y86.197 F6240.000 E64.43651
G1 F1800.000 E64.43151
G92 E0
G1 X92.652 Y90.825 F7800.000
G1 E0.10000 F1800.000
G1 X87.987 Y86.160 E0.54075 F1080.000
G1 X87.221 Y86.160 E0.59189
G1 X92.763 Y91.702 E1.11546
G1 X92.862 Y92.567 E1.17363
G1 X86.455 Y86.160 E1.77892
G1 X85.690 Y86.160 E1.83007
G1 X92.835 Y93.306 E2.50515
G1 X92.741 Y93.977 E2.55043
G1 X84.924 Y86.160 E3.28891
G1 X84.159 Y86.161 E3.34006
G1 X87.440 Y89.442 E3.65009
G1 X86.525 Y89.293 F7800.000
G1 X83.393 Y86.161 E3.94604 F1080.000
G1 X82.627 Y86.161 E3.99719
G1 X85.760 Y89.294 E4.29319
G1 X84.995 Y89.294 E4.34430
G1 X81.862 Y86.161 E4.64036
G1 X81.096 Y86.161 E4.69151
G1 X84.230 Y89.295 E4.98763
G1 X83.465 Y89.296 E5.03874
G1 X80.331 Y86.161 E5.33491
G1 X79.565 Y86.161 E5.38606
G1 X82.700 Y89.296 E5.68229
G1 X81.935 Y89.297 E5.73339
G1 X78.799 Y86.161 E6.02968
G1 X78.034 Y86.161 E6.08083
G1 X81.170 Y89.298 E6.37717
G1 X80.405 Y89.299 E6.42828
G1 X77.268 Y86.161 E6.72468
G1 X76.502 Y86.161 E6.77582
G1 X79.640 Y89.299 E7.07228
G1 X78.875 Y89.300 E7.12338
G1 X75.737 Y86.161 E7.41989
G1 X74.971 Y86.162 E7.47104
G1 X78.110 Y89.301 E7.76761
G1 X77.345 Y89.301 E7.81871
G1 X74.206 Y86.162 E8.11533
G1 X73.440 Y86.162 E8.16648
G1 X76.580 Y89.302 E8.46316
G1 X75.815 Y89.303 E8.51427
G1 X72.674 Y86.162 E8.81100
G1 X71.909 Y86.162 E8.86215
G1 X75.050 Y89.303 E9.15894
G1 X74.285 Y89.304 E9.21004
G1 X71.143 Y86.162 E9.50689
G1 X70.378 Y86.162 E9.55804
G1 X73.520 Y89.305 E9.85494
G1 X72.755 Y89.305 E9.90604
G1 X69.612 Y86.162 E10.20300
G1 X68.846 Y86.162 E10.25415
G1 X71.990 Y89.306 E10.55116
G1 X71.225 Y89.307 E10.60227
G1 X68.081 Y86.162 E10.89934
G1 X67.315 Y86.162 E10.95048
G1 X70.460 Y89.307 E11.24761
G1 X69.695 Y89.308 E11.29872
G1 X66.549 Y86.162 E11.59590
G1 X65.784 Y86.163 E11.64704
G1 X68.930 Y89.309 E11.94428
G1 X68.165 Y89.309 E11.99539
G1 X65.018 Y86.163 E12.29268
G1 X64.253 Y86.163 E12.34383
G1 X67.400 Y89.310 E12.64118
G1 X66.635 Y89.311 E12.69228
G1 X63.487 Y86.163 E12.98969
G1 X63.187 Y86.628 E13.02669
G1 X65.870 Y89.311 E13.28020
G1 X65.105 Y89.312 E13.33130
G1 X63.731 Y87.938 E13.46111
G1 X64.275 Y89.248 F7800.000
G1 X64.340 Y89.313 E13.46722 F1080.000
G1 X64.275 Y89.248 F6240.000 E13.44216
G1 F1800.000 E13.36722
G92 E0
G1 X78.754 Y106.024 F7800.000
G1 E0.10000 F1800.000
G1 X86.576 Y113.846 E0.83897 F1080.000
G1 X85.798 Y113.834 E0.89094
G1 X78.644 Y106.680 E1.56683
G1 X78.578 Y107.379 E1.61377
G1 X84.948 Y113.750 E2.21563
G1 X83.970 Y113.537 E2.28254
G1 X78.615 Y108.182 E2.78844
G1 X78.873 Y109.206 E2.85899
G1 X82.784 Y113.117 E3.22850
G1 X80.796 Y111.895 F7800.000
G1 X80.086 Y111.185 E3.29556 F1080.000
G1 X82.268 Y108.772 F7800.000
G1 X78.951 Y105.456 E3.60890 F1080.000
G1 X79.149 Y104.887 E3.64910
G1 X81.921 Y107.659 E3.91101
G1 X81.883 Y106.855 E3.96478
G1 X79.423 Y104.395 E4.19719
G1 X79.702 Y103.910 E4.23465
G1 X82.035 Y106.242 E4.45501
G1 X82.187 Y105.628 E4.49723
G1 X79.982 Y103.424 E4.70552
G1 X80.317 Y102.992 E4.74198
G1 X82.575 Y105.251 E4.95537
G1 X82.969 Y104.879 E4.99155
G1 X80.662 Y102.572 E5.20944
G1 X81.030 Y102.175 E5.24563
G1 X83.362 Y104.506 E5.46594
G1 X83.756 Y104.134 E5.50213
G1 X81.408 Y101.787 E5.72389
G1 X81.803 Y101.416 E5.76008
G1 X84.149 Y103.762 E5.98170
G1 X84.542 Y103.390 E6.01789
G1 X82.198 Y101.045 E6.23938
G1 X82.593 Y100.674 E6.27556
G1 X84.936 Y103.017 E6.49692
G1 X85.329 Y102.645 E6.53311
G1 X82.988 Y100.304 E6.75433
G1 X83.383 Y99.933 E6.79052
G1 X85.723 Y102.273 E7.01161
G1 X86.116 Y101.901 E7.04779
G1 X83.777 Y99.562 E7.26874
G1 X84.172 Y99.191 E7.30493
G1 X86.510 Y101.528 E7.52575
G1 X86.903 Y101.156 E7.56194
G1 X84.567 Y98.820 E7.78262
G1 X84.962 Y98.449 E7.81881
G1 X87.297 Y100.784 E8.03936
G1 X87.690 Y100.412 E8.07555
G1 X85.357 Y98.079 E8.29596
G1 X85.752 Y97.708 E8.33215
G1 X88.083 Y100.039 E8.55244
G1 X88.477 Y99.667 E8.58862
G1 X86.147 Y97.337 E8.80877
G1 X86.542 Y96.966 E8.84496
G1 X88.870 Y99.295 E9.06497
G1 X89.264 Y98.923 E9.10116
G1 X86.936 Y96.595 E9.32104
G1 X87.331 Y96.224 E9.35723
G1 X89.657 Y98.550 E9.57697
G1 X90.051 Y98.178 E9.61316
G1 X87.726 Y95.854 E9.83277
G1 X88.121 Y95.483 E9.86896
G1 X90.444 Y97.806 E10.08844
G1 X90.838 Y97.434 E10.12462
G1 X88.519 Y95.115 E10.34369
G1 X88.931 Y94.761 E10.37996
G1 X91.231 Y97.061 E10.59730
G1 X91.590 Y96.654 E10.63354
G1 X89.283 Y94.347 E10.85150
G1 X89.514 Y93.813 E10.89040
G1 X91.893 Y96.192 E11.11513
G1 X92.192 Y95.726 E11.15214
G1 X89.738 Y93.271 E11.38407
G1 X89.769 Y92.536 E11.43320
G1 X92.406 Y95.174 E11.68240
G1 X92.619 Y94.621 E11.72199
G1 X89.614 Y91.615 E12.00591
G1 X92.238 Y89.645 F7800.000
G1 X88.799 Y86.207 E12.33073 F1080.000
G1 X89.045 Y86.452 F6240.000 E12.23573
G1 F1800.000 E12.23073
G92 E0
G1 X83.693 Y110.197 F7800.000
G1 E0.10000 F1800.000
G1 X87.342 Y113.846 E0.44472 F1080.000
