; generated by Slic3r 1.1.7 on 2015-10-14 at 09:32:07

; perimeters extrusion width = 0.30mm
; infill extrusion width = 0.31mm
; solid infill extrusion width = 0.31mm
; top infill extrusion width = 0.31mm

G21 ; set units to millimeters
M107
M190 S60 ; wait for bed temperature to be reached
M104 S205 ; set temperature
; [mm] mode
G21
; Relative
G91 
G1 Z20
G90
G28
G29 

; up Z 5
G1 Z5 

; absolute mode
G90
G92 E0
M82


M109 S205 ; wait for temperature to be reached
G90 ; use absolute coordinates
G92 E0
M82 ; use absolute distances for extrusion
G1 F1800.000 E-0.10000
G92 E0
G1 Z0.300 F7800.000
G1 X78.169 Y49.215 F7800.000
G1 E0.10000 F1800.000
G1 X80.228 Y46.532 E0.32599 F1080.000
G1 X81.533 Y45.226 E0.44931
G1 X84.217 Y43.167 E0.67529
G1 X85.816 Y42.244 E0.79861
G1 X86.037 Y42.152 E0.81463
G1 X88.941 Y40.950 E1.02460
G1 X90.724 Y40.472 E1.14792
G1 X94.078 Y40.030 E1.37391
G1 X95.924 Y40.030 E1.49723
G1 X99.278 Y40.472 E1.72321
G1 X101.061 Y40.950 E1.84653 F1080.000
G1 X104.186 Y42.244 E2.07252
G1 X105.785 Y43.167 E2.19584
G1 X108.468 Y45.226 E2.42183
G1 X109.774 Y46.532 E2.54515
G1 X111.833 Y49.215 E2.77113
G1 X112.756 Y50.814 E2.89446
G1 X114.050 Y53.939 E3.12044
G1 X114.528 Y55.722 E3.24376
G1 X114.970 Y59.076 E3.46975
G1 X114.970 Y60.922 E3.59307
G1 X114.938 Y61.160 E3.60909
G1 X114.528 Y64.276 E3.81906
G1 X114.050 Y66.059 E3.94238
G1 X112.756 Y69.184 E4.16836
G1 X111.833 Y70.783 E4.29168
G1 X109.774 Y73.467 E4.51767
G1 X108.468 Y74.772 E4.64099
G1 X105.785 Y76.831 E4.86698
G1 X104.186 Y77.754 E4.99030
G1 X101.061 Y79.049 E5.21628
G1 X99.278 Y79.526 E5.33960
G1 X99.040 Y79.558 E5.35562
G1 X95.924 Y79.968 E5.56559
G1 X94.078 Y79.968 E5.68891
G1 X90.724 Y79.526 E5.91490
G1 X88.941 Y79.049 E6.03822
G1 X85.816 Y77.754 E6.26420
G1 X84.217 Y76.831 E6.38753
G1 X81.533 Y74.772 E6.61351
G1 X80.228 Y73.467 E6.73683
G1 X78.169 Y70.783 E6.96282
G1 X77.246 Y69.184 E7.08614
G1 X77.154 Y68.963 E7.10216
G1 X75.951 Y66.059 E7.31213
G1 X75.474 Y64.276 E7.43545
G1 X75.032 Y60.922 E7.66144
G1 X75.032 Y59.076 E7.78475
G1 X75.474 Y55.722 E8.01074
G1 X75.951 Y53.939 E8.13406
G1 X77.246 Y50.814 E8.36005
G1 X78.146 Y49.254 E8.48036
G1 X78.594 Y49.541 F7800.000
G1 X80.653 Y46.858 E8.70635 F1080.000
G1 X81.859 Y45.651 E8.82033
G1 X84.543 Y43.592 E9.04631
G1 X86.021 Y42.739 E9.16029
G1 X86.242 Y42.647 E9.17631
G1 X89.146 Y41.444 E9.38628
G1 X90.794 Y41.003 E9.50026
G1 X94.148 Y40.561 E9.72625
G1 X95.854 Y40.561 E9.84022
G1 X99.208 Y41.003 E10.06621
G1 X100.856 Y41.444 E10.18019 F1080.000
G1 X103.981 Y42.739 E10.40618
G1 X105.459 Y43.592 E10.52016
G1 X108.142 Y45.651 E10.74614
G1 X109.349 Y46.858 E10.86012
G1 X111.408 Y49.541 E11.08611
G1 X112.261 Y51.019 E11.20009
G1 X113.556 Y54.144 E11.42608
G1 X113.997 Y55.792 E11.54005
G1 X114.439 Y59.146 E11.76604
G1 X114.439 Y60.852 E11.88002
G1 X113.997 Y64.206 E12.10601
G1 X113.556 Y65.854 E12.21999
G1 X112.261 Y68.979 E12.44597
G1 X111.408 Y70.457 E12.55995
G1 X109.349 Y73.141 E12.78594
G1 X108.142 Y74.347 E12.89992
G1 X105.459 Y76.406 E13.12590
G1 X103.981 Y77.259 E13.23988
G1 X100.856 Y78.554 E13.46587
G1 X99.208 Y78.995 E13.57985
G1 X98.970 Y79.027 E13.59587
G1 X95.854 Y79.437 E13.80584
G1 X94.148 Y79.437 E13.91981
G1 X90.794 Y78.995 E14.14580
G1 X89.146 Y78.554 E14.25978
G1 X86.021 Y77.259 E14.48577
G1 X84.543 Y76.406 E14.59975
G1 X81.859 Y74.347 E14.82573
G1 X80.653 Y73.141 E14.93971
G1 X78.594 Y70.457 E15.16570
G1 X77.741 Y68.979 E15.27968
G1 X77.649 Y68.758 E15.29570
G1 X76.446 Y65.854 E15.50567
G1 X76.005 Y64.206 E15.61965
G1 X75.563 Y60.852 E15.84563
G1 X75.563 Y59.146 E15.95961
G1 X76.005 Y55.792 E16.18560
G1 X76.446 Y54.144 E16.29958
G1 X77.741 Y51.019 E16.52556
G1 X78.571 Y49.580 E16.63654
G1 X78.897 Y49.461 F6240.000 E16.54154
G1 F1800.000 E16.53654
G92 E0
G1 X105.025 Y65.787 F7800.000
G1 E0.10000 F1800.000
G1 X103.157 Y68.221 E0.30497 F540.000
G1 X100.788 Y70.023 E0.50384
G1 X97.997 Y71.180 E0.70571
G1 X95.001 Y71.574 E0.90757
G1 X92.005 Y71.180 E1.10944
G1 X89.213 Y70.023 E1.31130
G1 X86.816 Y68.184 E1.51317
G1 X84.977 Y65.787 E1.71504
G1 X83.820 Y62.995 E1.91690
G1 X83.426 Y59.999 E2.11877
G1 X83.820 Y57.003 E2.32064
G1 X84.977 Y54.212 E2.52250
G1 X86.816 Y51.814 E2.72437
G1 X89.213 Y49.975 E2.92624
G1 X92.005 Y48.818 E3.12810
G1 X95.001 Y48.424 E3.32997
G1 X95.060 Y48.432 E3.33393
G1 X97.997 Y48.818 E3.53183 F540.000
G1 X100.788 Y49.975 E3.73370
G1 X103.186 Y51.814 E3.93557
G1 X105.025 Y54.212 E4.13743
G1 X106.182 Y57.003 E4.33930
G1 X106.576 Y59.999 E4.54116
G1 X106.182 Y62.995 E4.74303
G1 X105.042 Y65.745 E4.94189
G1 X105.450 Y66.113 F7800.000
G1 X103.568 Y68.566 E5.14847 F540.000
G1 X101.059 Y70.491 E5.35976
G1 X98.137 Y71.702 E5.57104
G1 X95.001 Y72.114 E5.78233
G1 X91.865 Y71.702 E5.99362
G1 X88.943 Y70.491 E6.20491
G1 X86.434 Y68.566 E6.41620
G1 X84.509 Y66.057 E6.62748
G1 X83.298 Y63.135 E6.83877
G1 X82.886 Y59.999 E7.05006
G1 X83.298 Y56.863 E7.26135
G1 X84.509 Y53.941 E7.47264
G1 X86.434 Y51.432 E7.68392
G1 X88.943 Y49.507 E7.89521
G1 X91.865 Y48.297 E8.10650
G1 X91.994 Y48.280 E8.11517
G1 X95.001 Y47.884 E8.31779 F540.000
G1 X98.137 Y48.297 E8.52907
G1 X101.059 Y49.507 E8.74036
G1 X103.568 Y51.432 E8.95165
G1 X105.493 Y53.941 E9.16294
G1 X106.703 Y56.863 E9.37423
G1 X107.116 Y59.999 E9.58551
G1 X106.703 Y63.135 E9.79680
G1 X105.478 Y66.077 E10.00974
G1 X105.875 Y66.439 F7800.000
G1 X103.950 Y68.948 E10.22102 F378.000
G1 X101.329 Y70.959 E10.44173
G1 X98.276 Y72.223 E10.66244
G1 X95.001 Y72.655 E10.88315
G1 X91.725 Y72.223 E11.10386
G1 X88.673 Y70.959 E11.32457
G1 X86.052 Y68.948 E11.54528
G1 X84.041 Y66.327 E11.76599
G1 X82.777 Y63.275 E11.98670
G1 X82.345 Y59.999 E12.20741
G1 X82.777 Y56.724 E12.42812
G1 X84.041 Y53.671 E12.64883
G1 X86.052 Y51.050 E12.86954
G1 X88.673 Y49.039 E13.09025
G1 X91.725 Y47.775 E13.31096
G1 X95.001 Y47.344 E13.53167
G1 X95.199 Y47.370 E13.54505
G1 X98.276 Y47.775 E13.75238 F378.000
G1 X101.329 Y49.039 E13.97309
G1 X103.950 Y51.050 E14.19380
G1 X105.961 Y53.671 E14.41451
G1 X107.225 Y56.724 E14.63522
G1 X107.656 Y59.999 E14.85593
G1 X107.225 Y63.275 E15.07663
G1 X105.961 Y66.327 E15.29734
G1 X105.902 Y66.403 E15.30376
G1 X95.471 Y47.497 F7800.000
G1 X98.842 Y49.567 F7800.000
G1 X105.433 Y56.158 E15.92650 F1080.000
G1 X105.856 Y57.353 F7800.000
G1 X97.647 Y49.144 E16.70208 F1080.000
G1 X96.758 Y49.027 E16.76195
G1 X105.973 Y58.242 E17.63253
G1 X106.090 Y59.130 E17.69239
G1 X95.870 Y48.910 E18.65796
G1 X94.986 Y48.797 E18.71749
G1 X106.203 Y60.014 E19.77720
G1 X106.113 Y60.696 E19.82313
G1 X94.304 Y48.887 E20.93877
G1 X93.622 Y48.977 E20.98471
G1 X106.023 Y61.378 E22.15627
G1 X105.933 Y62.059 E22.20221
G1 X92.941 Y49.067 E23.42971
G1 X92.259 Y49.156 E23.47564
G1 X105.844 Y62.741 E24.75907
G1 X105.649 Y63.318 E24.79975
G1 X91.682 Y49.351 E26.11932
G1 X91.136 Y49.577 E26.15877
G1 X105.423 Y63.864 E27.50854
G1 X105.197 Y64.409 E27.54799
G1 X90.591 Y49.803 E28.92795
G1 X90.045 Y50.029 E28.96739
G1 X104.971 Y64.955 E30.37754
G1 X104.745 Y65.500 E30.41699
G1 X89.500 Y50.255 E31.85733
G1 X89.043 Y50.570 E31.89439
G1 X104.430 Y65.957 E33.34813
G1 X104.095 Y66.393 E33.38489
G1 X88.607 Y50.905 E34.84823
G1 X88.170 Y51.240 E34.88499
G1 X103.760 Y66.830 E36.35792
G1 X103.425 Y67.266 E36.39468
G1 X87.734 Y51.575 E37.87721
G1 X87.297 Y51.909 E37.91397
G1 X103.091 Y67.703 E39.40609
G1 X102.713 Y68.097 E39.44254
G1 X86.911 Y52.295 E40.93540
G1 X86.576 Y52.732 E40.97216
G1 X102.274 Y68.430 E42.45528
G1 X101.836 Y68.763 E42.49205
G1 X86.241 Y53.168 E43.96542
G1 X85.906 Y53.605 E44.00218
G1 X101.398 Y69.097 E45.46580
G1 X100.960 Y69.430 E45.50258
G1 X85.571 Y54.041 E46.95646
G1 X85.257 Y54.498 E46.99351
G1 X100.502 Y69.743 E48.43386
G1 X99.956 Y69.969 E48.47330
G1 X85.031 Y55.044 E49.88345
G1 X84.805 Y55.589 E49.92290
G1 X99.411 Y70.195 E51.30286
G1 X98.865 Y70.421 E51.34231
G1 X84.579 Y56.135 E52.69208
G1 X84.353 Y56.680 E52.73152
G1 X98.320 Y70.647 E54.05110
G1 X97.743 Y70.842 E54.09178
G1 X84.158 Y57.257 E55.37520
G1 X84.068 Y57.939 E55.42114
G1 X97.061 Y70.932 E56.64864
G1 X96.379 Y71.021 E56.69457
G1 X83.979 Y58.621 E57.86614
G1 X83.889 Y59.302 E57.91208
G1 X95.698 Y71.111 E59.02771
G1 X95.016 Y71.201 E59.07365
G1 X83.799 Y59.984 E60.13336
G1 X83.912 Y60.868 E60.19289
G1 X94.132 Y71.088 E61.15845
G1 X93.243 Y70.971 E61.21832
G1 X84.029 Y61.757 E62.08890
G1 X84.146 Y62.645 E62.14876
G1 X92.355 Y70.854 E62.92435
G1 X91.160 Y70.431 F7800.000
G1 X84.569 Y63.840 E63.54709 F1080.000
G1 X85.114 Y65.157 F7800.000
G1 X89.843 Y69.886 E63.99386 F1080.000
G1 X87.201 Y68.015 F7800.000
G1 X86.985 Y67.799 E64.01433 F1080.000
G1 X100.159 Y50.113 F7800.000
G1 X104.887 Y54.841 E64.46110 F1080.000
G1 X103.017 Y52.200 F7800.000
G1 X102.800 Y51.983 E64.48157 F1080.000
M106 S245
G1 X103.017 Y52.200 F6240.000 E64.39759
G1 F1800.000 E64.38157
G92 E0
G1 Z0.600 F7800.000
G1 X105.428 Y66.095 F7800.000
G1 E0.10000 F1800.000
G1 X103.549 Y68.544 E0.21547 F1800.000
G1 X101.046 Y70.464 E0.33353
G1 X98.131 Y71.672 E0.45159
G1 X95.003 Y72.084 E0.56965
G1 X91.874 Y71.672 E0.68770
G1 X88.959 Y70.464 E0.80576
G1 X86.456 Y68.544 E0.92382
G1 X84.536 Y66.041 E1.04188
G1 X83.328 Y63.126 E1.15994
G1 X82.916 Y59.997 E1.27800
G1 X83.328 Y56.869 E1.39606
G1 X84.536 Y53.954 E1.51411
G1 X86.456 Y51.451 E1.63217
G1 X88.959 Y49.530 E1.75023
G1 X91.874 Y48.323 E1.86829
G1 X95.003 Y47.911 E1.98635
G1 X95.618 Y47.992 E2.00957
G1 X98.131 Y48.323 E2.10441 F1800.000
G1 X101.046 Y49.530 E2.22247
G1 X103.549 Y51.451 E2.34053
G1 X105.470 Y53.954 E2.45858
G1 X106.677 Y56.869 E2.57664
G1 X107.089 Y59.997 E2.69470
G1 X106.677 Y63.126 E2.81276
G1 X105.455 Y66.060 E2.93169
G1 X105.666 Y66.278 F7800.000
G1 X103.763 Y68.758 E3.04864 F1800.000
G1 X101.197 Y70.726 E3.16965
G1 X98.209 Y71.964 E3.29067
G1 X95.003 Y72.386 E3.41168
G1 X91.796 Y71.964 E3.53270
G1 X88.808 Y70.726 E3.65371
G1 X86.242 Y68.758 E3.77473
G1 X84.274 Y66.192 E3.89574
G1 X83.036 Y63.204 E4.01675
G1 X82.614 Y59.997 E4.13777
G1 X83.036 Y56.791 E4.25878
G1 X84.274 Y53.803 E4.37980
G1 X86.242 Y51.237 E4.50081
G1 X88.808 Y49.268 E4.62183
G1 X91.796 Y48.031 E4.74284
G1 X92.451 Y47.944 E4.76754
G1 X95.003 Y47.608 E4.86385 F1800.000
G1 X98.209 Y48.031 E4.98487
G1 X101.197 Y49.268 E5.10588
G1 X103.763 Y51.237 E5.22690
G1 X105.732 Y53.803 E5.34791
G1 X106.969 Y56.791 E5.46893
G1 X107.392 Y59.997 E5.58994
G1 X106.969 Y63.204 E5.71096
G1 X105.732 Y66.192 E5.83197
G1 X105.693 Y66.242 E5.83435
G1 X105.904 Y66.461 F7800.000
G1 X103.977 Y68.972 E5.95278 F1260.000
G1 X101.348 Y70.989 E6.07675
G1 X98.287 Y72.256 E6.20072
G1 X95.003 Y72.689 E6.32469
G1 X91.718 Y72.256 E6.44866
G1 X88.657 Y70.989 E6.57263
G1 X86.028 Y68.972 E6.69660
G1 X84.011 Y66.343 E6.82057
G1 X82.744 Y63.282 E6.94454
G1 X82.311 Y59.997 E7.06851
G1 X82.744 Y56.713 E7.19248
G1 X84.011 Y53.652 E7.31645
G1 X86.028 Y51.023 E7.44042
G1 X88.657 Y49.006 E7.56439
G1 X91.718 Y47.738 E7.68836
G1 X95.003 Y47.306 E7.81233
G1 X95.696 Y47.397 E7.83850
G1 X98.287 Y47.738 E7.93630 F1260.000
G1 X101.348 Y49.006 E8.06027
G1 X103.977 Y51.023 E8.18424
G1 X105.994 Y53.652 E8.30821
G1 X107.262 Y56.713 E8.43218
G1 X107.694 Y59.997 E8.55615
G1 X107.262 Y63.282 E8.68012
G1 X105.994 Y66.343 E8.80409
G1 X105.931 Y66.425 E8.80795
G1 X95.967 Y47.526 F7800.000
G1 X91.900 Y48.529 F7800.000
G1 X83.534 Y56.895 E9.26804 F3600.000
G1 X83.459 Y57.412 E9.28836
G1 X92.417 Y48.453 E9.78105
G1 X92.926 Y48.386 E9.80099
G1 X83.392 Y57.921 E10.32533
G1 X83.325 Y58.429 E10.34527
G1 X93.434 Y48.319 E10.90125
G1 X93.943 Y48.252 E10.92119
G1 X83.258 Y58.938 E11.50881
G1 X83.191 Y59.446 E11.52876
G1 X94.451 Y48.186 E12.14803
G1 X94.960 Y48.119 E12.16797
G1 X83.124 Y59.955 E12.81888
G1 X83.165 Y60.355 E12.83453
G1 X95.360 Y48.160 E13.50517
G1 X95.750 Y48.211 E13.52047
G1 X83.217 Y60.745 E14.20975
G1 X83.268 Y61.135 E14.22505
G1 X96.140 Y48.263 E14.93296
G1 X96.530 Y48.314 E14.94827
G1 X83.319 Y61.525 E15.67481
G1 X83.371 Y61.915 E15.69011
G1 X96.921 Y48.365 E16.43528
G1 X97.311 Y48.417 E16.45059
G1 X83.422 Y62.306 E17.21439
G1 X83.473 Y62.696 E17.22970
G1 X97.701 Y48.468 E18.01213
G1 X98.089 Y48.522 E18.02735
G1 X83.527 Y63.083 E18.82815
G1 X83.657 Y63.396 E18.84129
G1 X98.401 Y48.651 E19.65214
G1 X98.713 Y48.781 E19.66528
G1 X83.786 Y63.708 E20.48619
G1 X83.915 Y64.020 E20.49933
G1 X99.025 Y48.910 E21.33030
G1 X99.338 Y49.039 E21.34344
G1 X84.045 Y64.332 E22.18447
G1 X84.174 Y64.644 E22.19761
G1 X99.650 Y49.169 E23.04870
G1 X99.962 Y49.298 E23.06184
G1 X84.303 Y64.957 E23.92298
G1 X84.433 Y65.269 E23.93612
G1 X100.274 Y49.427 E24.80732
G1 X100.586 Y49.557 E24.82046
G1 X84.562 Y65.581 E25.70172
G1 X84.691 Y65.893 E25.71486
G1 X100.899 Y49.686 E26.60618
G1 X101.158 Y49.868 E26.61850
G1 X84.874 Y66.152 E27.51403
G1 X85.065 Y66.402 E27.52628
G1 X101.408 Y50.060 E28.42501
G1 X101.657 Y50.252 E28.43725
G1 X85.257 Y66.652 E29.33918
G1 X85.449 Y66.902 E29.35142
G1 X101.907 Y50.444 E30.25654
G1 X102.157 Y50.635 E30.26879
G1 X85.641 Y67.152 E31.17711
G1 X85.832 Y67.402 E31.18935
G1 X102.407 Y50.827 E32.10087
G1 X102.657 Y51.019 E32.11312
G1 X86.024 Y67.651 E33.02783
G1 X86.216 Y67.901 E33.04007
G1 X102.907 Y51.210 E33.95798
G1 X103.156 Y51.402 E33.97023
G1 X86.407 Y68.151 E34.89133
G1 X86.613 Y68.387 E34.90350
G1 X103.392 Y51.608 E35.82623
G1 X103.598 Y51.844 E35.83840
G1 X86.849 Y68.593 E36.75951
G1 X87.099 Y68.784 E36.77175
G1 X103.790 Y52.093 E37.68966
G1 X103.981 Y52.343 E37.70191
G1 X87.349 Y68.976 E38.61662
G1 X87.598 Y69.168 E38.62886
G1 X104.173 Y52.593 E39.54038
G1 X104.365 Y52.843 E39.55262
G1 X87.848 Y69.359 E40.46094
G1 X88.098 Y69.551 E40.47319
G1 X104.556 Y53.093 E41.37831
G1 X104.748 Y53.343 E41.39056
G1 X88.348 Y69.743 E42.29248
G1 X88.598 Y69.935 E42.30473
G1 X104.940 Y53.592 E43.20345
G1 X105.132 Y53.842 E43.21570
G1 X88.848 Y70.126 E44.11123
G1 X89.107 Y70.309 E44.12355
G1 X105.314 Y54.101 E45.01487
G1 X105.443 Y54.414 E45.02801
G1 X89.419 Y70.438 E45.90927
G1 X89.731 Y70.567 E45.92241
G1 X105.573 Y54.726 E46.79361
G1 X105.702 Y55.038 E46.80675
G1 X90.043 Y70.697 E47.66790
G1 X90.356 Y70.826 E47.68104
G1 X105.831 Y55.350 E48.53212
G1 X105.961 Y55.662 E48.54527
G1 X90.668 Y70.955 E49.38629
G1 X90.980 Y71.085 E49.39943
G1 X106.090 Y55.975 E50.23040
G1 X106.219 Y56.287 E50.24354
G1 X91.292 Y71.214 E51.06445
G1 X91.604 Y71.343 E51.07759
G1 X106.349 Y56.599 E51.88845
G1 X106.478 Y56.911 E51.90159
G1 X91.917 Y71.473 E52.70238
G1 X92.304 Y71.527 E52.71760
G1 X106.532 Y57.299 E53.50004
G1 X106.583 Y57.689 E53.51534
G1 X92.694 Y71.578 E54.27915
G1 X93.085 Y71.629 E54.29445
G1 X106.635 Y58.079 E55.03963
G1 X106.686 Y58.470 E55.05493
G1 X93.475 Y71.681 E55.78147
G1 X93.865 Y71.732 E55.79677
G1 X106.737 Y58.860 E56.50468
G1 X106.789 Y59.250 E56.51998
G1 X94.255 Y71.783 E57.20926
G1 X94.645 Y71.835 E57.22456
G1 X106.840 Y59.640 E57.89521
G1 X106.881 Y60.040 E57.91085
G1 X95.045 Y71.876 E58.56176
G1 X95.554 Y71.809 E58.58171
G1 X106.814 Y60.549 E59.20098
G1 X106.748 Y61.057 E59.22092
G1 X96.062 Y71.742 E59.80854
G1 X96.571 Y71.675 E59.82849
G1 X106.681 Y61.566 E60.38446
G1 X106.614 Y62.074 E60.40441
G1 X97.079 Y71.608 E60.92874
G1 X97.588 Y71.541 E60.94868
G1 X106.547 Y62.583 E61.44137
G1 X106.471 Y63.100 E61.46169
G1 X98.105 Y71.466 E61.92179
G1 X98.859 Y71.154 F7800.000
G1 X106.159 Y63.853 E62.32326 F3600.000
G1 X105.847 Y64.607 F7800.000
G1 X99.613 Y70.841 E62.66611 F3600.000
G1 X100.366 Y70.529 F7800.000
G1 X105.535 Y65.361 E62.95033 F3600.000
G1 X104.956 Y66.381 F7800.000
G1 X101.386 Y69.951 E63.14670 F3600.000
G1 X103.284 Y68.495 F7800.000
G1 X103.500 Y68.278 E63.15861 F3600.000
G1 X91.147 Y48.841 F7800.000
G1 X83.846 Y56.141 E63.56009 F3600.000
G1 X84.159 Y55.387 F7800.000
G1 X90.393 Y49.153 E63.90293 F3600.000
G1 X89.639 Y49.465 F7800.000
G1 X84.471 Y54.634 E64.18716 F3600.000
G1 X85.049 Y53.614 F7800.000
G1 X88.619 Y50.044 E64.38352 F3600.000
G1 X86.722 Y51.500 F7800.000
G1 X86.505 Y51.716 E64.39544 F3600.000
M106 S247
G1 X86.722 Y51.500 F6240.000 E64.31146
G1 F1800.000 E64.29544
G92 E0
G1 Z0.900 F7800.000
G1 X105.337 Y66.026 F7800.000
G1 E0.10000 F1800.000
G1 X103.469 Y68.460 E0.21481 F1800.000
