; generated by Slic3r 1.1.7 on 2015-11-10 at 11:45:05

; perimeters extrusion width = 0.30mm
; infill extrusion width = 0.31mm
; solid infill extrusion width = 0.31mm
; top infill extrusion width = 0.31mm

G21 ; set units to millimeters
M107
M190 S60 ; wait for bed temperature to be reached
M104 S205 ; set temperature
; [mm] mode
G21
; Relative
G91 
G1 Z20
G90
G28
G29 

; up Z 5
G1 Z5 

; absolute mode
G90
G92 E0
M82

M109 S205.000000
G90 ; use absolute coordinates
G92 E0
M82 ; use absolute distances for extrusion

;Layer count: 25
;LAYER:0
M107
G0 F9000 X85.018 Y100.403 Z0.300
;TYPE:SKIRT
G1 F1200 X96.937 Y100.401 E0.59464
G1 X98.345 Y100.561 E0.66534
G1 X98.927 Y100.960 E0.70054
G1 X100.233 Y100.394 E0.77156
G1 X104.092 Y100.424 E0.96409
G1 X106.157 Y101.903 E1.09081
G1 X109.075 Y108.934 E1.47060
G1 X110.446 Y108.934 E1.53900
G1 X112.919 Y109.767 E1.66919
G1 X114.348 Y113.223 E1.85576
G1 X115.208 Y116.745 E2.03664
G1 X111.698 Y118.509 E2.23263
G1 X95.447 Y118.509 E3.04339
G1 X93.458 Y118.102 E3.14468
G1 X92.264 Y117.532 E3.21069
G1 X91.189 Y116.756 E3.27683
G1 X90.197 Y115.653 E3.35084
G1 X89.305 Y114.030 E3.44324
G1 X89.085 Y112.444 E3.52312
G1 X88.975 Y111.731 E3.55912
G1 X89.438 Y109.920 E3.65237
G1 X88.492 Y109.921 E3.69957
G1 X87.792 Y109.923 E3.73449
G1 X86.133 Y109.572 E3.8²9
G1 X84.635 Y107.962 E3.92881
G1 X82.957 Y103.919 E4.14719
G1 X85.018 Y100.403 E4.35052
G0 F9000 X85.248 Y100.803
G1 F1200 X96.914 Y100.801 E4.93254
G1 X98.201 Y100.948 E4.99717
G1 X98.883 Y101.415 E5.03841
G1 X100.315 Y100.795 E5.11626
G1 X103.962 Y100.823 E5.29821
G1 X105.832 Y102.162 E5.41296
G1 X108.808 Y109.334 E5.80035
G1 X110.380 Y109.334 E5.87878
G1 X112.619 Y110.088 E5.99665
G1 X113.967 Y113.347 E6.17260
G1 X114.744 Y116.530 E6.33606
G1 X111.603 Y118.109 E6.51146
G1 X95.488 Y118.109 E7.31544
G1 X93.586 Y117.719 E7.41230
G1 X92.469 Y117.187 E7.47403
G1 X91.457 Y116.456 E7.53631
G1 X90.526 Y115.420 E7.60580
G1 X89.692 Y113.902 E7.69221
G1 X89.481 Y112.389 E7.76842
G1 X89.383 Y111.751 E7.80063
G1 X89.912 Y109.680 E7.90727
G1 X90.004 Y109.520 E7.91648
G1 X88.491 Y109.521 E7.99196
G1 X87.833 Y109.523 E8.02479
G1 X86.340 Y109.207 E8.10092
G1 X84.977 Y107.742 E8.20075
G1 X83.403 Y103.949 E8.40563
G1 X85.248 Y100.803 E8.58759
G1 F2400 E4.08759
G0 F9000 X87.788 Y104.603
;TYPE:WALL-INNER
G1 F2400 E8.58759
G1 F1200 X96.700 Y104.601 E9.03221
G1 X96.833 Y104.616 E9.03889
G1 X97.322 Y104.951 E9.06846
G1 X97.803 Y105.435 E9.10250
G1 X98.126 Y106.027 E9.13615
G1 X98.260 Y106.820 E9.17627
G1 X98.171 Y107.597 E9.21529
G1 X98.033 Y107.951 E9.23425
G1 X97.774 Y108.353 E9.25810
G1 X94.528 Y111.424 E9.48104
G1 X94.388 Y111.987 E9.50998
G1 X94.562 Y112.543 E9.53905
G1 X94.907 Y112.963 E9.56616
G1 X95.447 Y113.140 E9.59452
G1 X103.645 Y113.139 E10.00352
G1 X104.069 Y113.138 E10.02467
G1 X104.705 Y112.951 E10.05774
G1 X104.678 Y112.078 E10.10132
G1 X101.598 Y104.605 E10.50457
G1 X102.728 Y104.614 E10.56095
G1 X102.738 Y104.620 E10.56153
G1 X106.030 Y112.556 E10.99017
G1 X106.320 Y112.925 E11.01359
G1 X106.755 Y113.135 E11.03769
G1 X109.756 Y113.134 E11.18741
G1 X109.769 Y113.138 E11.18808
G1 X110.253 Y114.309 E11.25130
G1 X95.873 Y114.309 E11.96872
G1 X94.804 Y114.090 E12.02316
G1 X94.412 Y113.903 E12.04483
G1 X94.012 Y113.614 E12.06945
G1 X93.645 Y113.207 E12.09679
G1 X93.359 Y112.685 E12.12649
G1 X93.256 Y111.941 E12.16396
G1 X93.464 Y111.125 E12.20597
G1 X93.718 Y110.684 E12.23136
G1 X94.179 Y110.137 E12.26705
G1 X96.975 Y107.520 E12.45811
G1 X97.170 Y107.065 E12.48281
G1 X97.113 Y106.478 E12.51223
G1 X96.840 Y106.052 E12.53748
G1 X96.261 Y105.715 E12.57090
G1 X88.480 Y105.721 E12.95909
G1 X88.287 Y105.722 E12.96872
G1 X88.224 Y105.654 E12.97335
G1 X87.788 Y104.603 E13.03012
G0 F9000 X87.884 Y105.876
;TYPE:WALL-OUTER
G1 F1200 X87.192 Y104.209 E13.12016
G1 X96.719 Y104.201 E13.59547
G1 X96.978 Y104.230 E13.60847
G1 X97.580 Y104.643 E13.64489
G1 X98.125 Y105.192 E13.68349
G1 X98.510 Y105.897 E13.72356
G1 X98.662 Y106.798 E13.76915
G1 X98.664 Y106.808 E13.76966
G1 X98.563 Y107.682 E13.81355
G1 X98.562 Y107.694 E13.81415
G1 X98.392 Y108.133 E13.83764
G1 X98.084 Y108.611 E13.86601
G1 X94.888 Y111.634 E14.08548
G1 X94.803 Y111.974 E14.10297
G1 X94.921 Y112.349 E14.12258
G1 X95.142 Y112.619 E14.13999
G1 X95.511 Y112.740 E14.15936
G1 X104.011 Y112.738 E14.58343
G1 X104.296 Y112.654 E14.59825
G1 X104.281 Y112.163 E14.62276
G1 X100.999 Y104.204 E15.05227
G1 X102.858 Y104.215 E15.14502
G1 X103.063 Y104.361 E15.15758
G1 X106.379 Y112.352 E15.58921
G1 X106.577 Y112.605 E15.60524
G1 X106.846 Y112.735 E15.62015
G1 X109.822 Y112.734 E15.76862
G1 X110.068 Y112.817 E15.78157
G1 X110.726 Y114.409 E15.86751
G1 X110.799 Y114.707 E15.88282
G1 X95.832 Y114.709 E16.62953
G1 X94.677 Y114.472 E16.68835
G1 X94.208 Y114.249 E16.71426
G1 X93.744 Y113.914 E16.74281
G1 X93.314 Y113.436 E16.77489
G1 X92.973 Y112.815 E16.81023
G1 X92.849 Y111.920 E16.85531
G1 X93.091 Y110.971 E16.90417
G1 X93.389 Y110.453 E16.93399
G1 X93.885 Y109.865 E16.97237
G1 X96.640 Y107.285 E17.16067
G1 X96.762 Y107.002 E17.17605
G1 X96.724 Y106.613 E17.19555
G1 X96.555 Y106.349 E17.21119
G1 X96.153 Y106.115 E17.23439
G1 X88.185 Y106.122 E17.63192
G1 X88.095 Y106.103 E17.63651
G1 X87.884 Y105.876 E17.65197
G0 F9000 X88.892 Y105.580
;TYPE:SKIN
G1 F1200 X88.054 Y104.742 E17.71109
G0 F9000 X88.620 Y104.742
G1 F1200 X89.457 Y105.579 E17.77015
G0 F9000 X90.023 Y105.579
G1 F1200 X89.185 Y104.742 E17.82924
G0 F9000 X89.751 Y104.742
G1 F1200 X90.588 Y105.578 E17.88826
G0 F9000 X91.153 Y105.578
G1 F1200 X90.317 Y104.742 E17.94724
G0 F9000 X90.883 Y104.742
G1 F1200 X91.718 Y105.578 E18.00619
G0 F9000 X92.283 Y105.577
G1 F1200 X91.447 Y104.741 E18.06518
G0 F9000 X92.013 Y104.741
G1 F1200 X92.848 Y105.576 E18.12409
G0 F9000 X93.414 Y105.576
G1 F1200 X92.579 Y104.741 E18.18300
G0 F9000 X93.145 Y104.741
G1 F1200 X93.979 Y105.575 E18.24185
G0 F9000 X94.544 Y105.575
G1 F1200 X93.710 Y104.741 E18.30069
G0 F9000 X94.275 Y104.740
G1 F1200 X95.110 Y105.575 E18.35960
G0 F9000 X95.675 Y105.574
G1 F1200 X94.841 Y104.740 E18.41845
G0 F9000 X95.407 Y104.740
G1 F1200 X96.240 Y105.574 E18.47726
G0 F9000 X95.972 Y104.740
G1 F1200 X98.112 Y106.880 E18.62824
G0 F9000 X98.054 Y107.388
G1 F1200 X97.263 Y106.597 E18.68405
G0 F9000 X97.275 Y107.174
G1 F1200 X97.930 Y107.830 E18.73030
G0 F9000 X97.717 Y108.183
G1 F1200 X97.104 Y107.570 E18.77355
G0 F9000 X96.822 Y107.852
G1 F1200 X97.442 Y108.473 E18.81733
G0 F9000 X97.152 Y108.748
G1 F1200 X96.529 Y108.126 E18.86125
G0 F9000 X96.237 Y108.400
G1 F1200 X96.861 Y109.023 E18.90525
G0 F9000 X96.570 Y109.298
G1 F1200 X95.945 Y108.673 E18.94934
G0 F9000 X95.653 Y108.947
G1 F1200 X96.279 Y109.573 E18.99351
G0 F9000 X95.989 Y109.848
G1 F1200 X95.361 Y109.221 E19.03778
G0 F9000 X95.069 Y109.494
G1 F1200 X95.698 Y110.123 E19.08216
G0 F9000 X95.407 Y110.398
G1 F1200 X94.777 Y109.768 E19.12661
G0 F9000 X94.485 Y110.042
G1 F1200 X95.117 Y110.673 E19.17117
G0 F9000 X94.826 Y110.948
G1 F1200 X94.202 Y110.324 E19.21520
G0 F9000 X93.944 Y110.631
G1 F1200 X94.535 Y111.223 E19.25693
G0 F9000 X94.341 Y111.594
G1 F1200 X93.714 Y110.967 E19.30117
G0 F9000 X93.545 Y111.365
G1 F1200 X94.275 Y112.094 E19.35264
G0 F9000 X93.461 Y112.412
G1 F1200 X95.044 Y113.994 E19.46429
G0 F9000 X95.757 Y114.141
G1 F1200 X93.430 Y111.815 E19.62844
G0 F9000 X95.460 Y113.279
G1 F1200 X96.348 Y114.168 E19.69113
G0 F9000 X96.914 Y114.168
G1 F1200 X96.025 Y113.279 E19.75385
G0 F9000 X96.591 Y113.279
G1 F1200 X97.480 Y114.168 E19.81657
G0 F9000 X98.046 Y114.168
G1 F1200 X97.157 Y113.279 E19.87930
G0 F9000 X97.722 Y113.279
G1 F1200 X98.611 Y114.168 E19.94202
G0 F9000 X99.177 Y114.168
G1 F1200 X98.288 Y113.279 E20.00475
G0 F9000 X98.853 Y113.278
G1 F1200 X99.743 Y114.168 E20.06754
G0 F9000 X100.308 Y114.168
G1 F1200 X99.419 Y113.278 E20.13030
G0 F9000 X99.984 Y113.278
G1 F1200 X100.874 Y114.168 E20.19309
G0 F9000 X101.440 Y114.168
G1 F1200 X100.550 Y113.278 E20.25589
G0 F9000 X101.116 Y113.278
G1 F1200 X102.005 Y114.168 E20.31865
G0 F9000 X102.571 Y114.168
G1 F1200 X101.681 Y113.277 E20.38148
G0 F9000 X102.246 Y113.277
G1 F1200 X103.137 Y114.168 E20.44434
G0 F9000 X103.702 Y114.168
G1 F1200 X102.812 Y113.277 E20.50717
G0 F9000 X103.378 Y113.277
G1 F1200 X104.268 Y114.168 E20.57000
G0 F9000 X104.834 Y114.168
G1 F1200 X103.943 Y113.277 E20.63286
G0 F9000 X104.413 Y113.181
G1 F1200 X105.399 Y114.168 E20.70247
G0 F9000 X105.965 Y114.168
G1 F1200 X104.848 Y113.050 E20.78131
G0 F9000 X104.829 Y112.466
G1 F1200 X106.531 Y114.168 E20.90140
G0 F9000 X107.096 Y114.168
G1 F1200 X104.705 Y111.776 E21.07013
G0 F9000 X105.355 Y111.295
G1 F1200 X103.912 Y109.852 E21.17194
G0 F9000 X104.553 Y109.361
G1 F1200 X103.119 Y107.927 E21.27312
G0 F9000 X103.750 Y107.427
G1 F1200 X102.326 Y106.003 E21.37359
G0 F9000 X102.949 Y105.494
G1 F1200 X102.203 Y104.748 E21.42623
G0 F9000 X101.929 Y105.040
G1 F1200 X103.350 Y106.461 E21.52648
G0 F9000 X102.722 Y106.965
G1 F1200 X104.151 Y108.394 E21.62731
G0 F9000 X103.516 Y108.890
G1 F1200 X104.954 Y110.328 E21.72877
G0 F9000 X104.309 Y110.814
G1 F1200 X105.756 Y112.261 E21.83086
G0 F9000 X106.768 Y113.274
G1 F1200 X107.662 Y114.168 E21.89394
G0 F9000 X108.228 Y114.168
G1 F1200 X107.334 Y113.274 E21.95701
G0 F9000 X107.900 Y113.274
G1 F1200 X108.794 Y114.168 E22.02009
G0 F9000 X109.359 Y114.168
G1 F1200 X108.465 Y113.274 E22.08317
G0 F9000 X109.031 Y113.274
G1 F1200 X109.925 Y114.168 E22.14624
G0 F9000 X109.729 Y113.406
G1 F1200 X109.597 Y113.274 E22.15556
G0 F9000 X106.323 Y112.920
G0 X95.448 Y113.137
G0 X94.566 Y112.541
G0 X94.536 Y111.429
G0 X98.016 Y106.218
G1 F1200 X96.538 Y104.740 E22.25984
;LAYER:1
M106 S255
G0 F9000 X96.261 Y105.715 Z0.500
;TYPE:WALL-INNER
G1 F1620 X88.288 Y105.722 E22.52502
G1 X88.224 Y105.654 E22.52813
G1 X87.788 Y104.603 E22.56597
G1 X96.700 Y104.601 E22.86239
G1 X96.833 Y104.616 E22.86684
G1 X97.295 Y104.933 E22.88547
G1 X97.804 Y105.437 E22.90930
G1 X98.126 Y106.027 E22.93165
G1 X98.260 Y106.821 E22.95843
G1 X98.170 Y107.596 E22.98438
G1 X98.027 Y107.968 E22.99764
G1 X97.775 Y108.353 E23.01294
G1 X94.528 Y111.424 E23.16159
G1 X94.388 Y111.987 E23.18089
G1 X94.562 Y112.543 E23.20026
G1 X94.907 Y112.963 E23.21834
G1 X95.447 Y113.140 E23.23724
G1 X104.068 Y113.138 E23.52398
G1 X104.705 Y112.951 E23.54606
G1 X104.678 Y112.078 E23.57511
G1 X101.598 Y104.605 E23.84395
G1 X102.728 Y104.614 E23.88153
G1 X102.738 Y104.620 E23.88192
G1 X106.030 Y112.556 E24.16768
G1 X106.320 Y112.925 E24.18329
G1 X106.755 Y113.135 E24.19936
G1 X109.756 Y113.134 E24.29917
G1 X109.769 Y113.138 E24.29962
G1 X110.253 Y114.309 E24.34176
G1 X95.873 Y114.309 E24.82005
G1 X94.804 Y114.090 E24.85634
G1 X94.412 Y113.903 E24.87078
G1 X94.012 Y113.614 E24.88720
G1 X93.645 Y113.207 E24.90543
G1 X93.359 Y112.685 E24.92522
G1 X93.255 Y111.943 E24.95014
G1 X93.464 Y111.125 E24.97822
G1 X93.732 Y110.660 E24.99607
G1 X94.155 Y110.164 E25.01776
G1 X96.975 Y107.520 E25.14633
G1 X97.170 Y107.065 E25.16279
G1 X97.113 Y106.478 E25.18241
G1 X96.840 Y106.052 E25.19924
G1 X96.261 Y105.715 E25.22152
G0 F9000 X96.153 Y106.115
;TYPE:WALL-OUTER
G1 F1620 X88.185 Y106.122 E25.48653
G1 X88.095 Y106.103 E25.48959
G1 X87.884 Y105.876 E25.49990
G1 X87.192 Y104.209 E25.55993
G1 X96.719 Y104.201 E25.87680
G1 X96.978 Y104.230 E25.88547
G1 X97.552 Y104.624 E25.90863
G1 X98.125 Y105.193 E25.93549
G1 X98.510 Y105.897 E25.96217
G1 X98.655 Y106.759 E25.99125
G1 X98.664 Y106.808 E25.99290
G1 X98.561 Y107.698 E26.02270
G1 X98.385 Y108.152 E26.03890
G1 X98.083 Y108.612 E26.05720
G1 X94.888 Y111.634 E26.20347
G1 X94.803 Y111.974 E26.21513
G1 X94.921 Y112.349 E26.22820
G1 X95.142 Y112.619 E26.23981
G1 X95.511 Y112.740 E26.25272
G1 X104.011 Y112.738 E26.53544
G1 X104.296 Y112.654 E26.54532
G1 X104.281 Y112.163 E26.56166
G1 X100.999 Y104.204 E26.84800
G1 X102.858 Y104.215 E26.90983
G1 X103.063 Y104.361 E26.91820
G1 X106.379 Y112.352 E27.20596
G1 X106.577 Y112.605 E27.21664
G1 X106.846 Y112.735 E27.22658
G1 X109.822 Y112.734 E27.32556
G1 X110.068 Y112.817 E27.33420
G1 X110.726 Y114.409 E27.39149
G1 X110.799 Y114.707 E27.40170
G1 X95.832 Y114.709 E27.89950
G1 X94.677 Y114.472 E27.93872
G1 X94.208 Y114.249 E27.95599
G1 X93.744 Y113.914 E27.97502
G1 X93.314 Y113.436 E27.99641
G1 X92.973 Y112.815 E28.01997
G1 X92.849 Y111.922 E28.04996
G1 X93.091 Y110.971 E28.08260
G1 X93.404 Y110.428 E28.10344
G1 X93.863 Y109.890 E28.12696
G1 X96.640 Y107.285 E28.25360
G1 X96.762 Y107.002 E28.26385
G1 X96.724 Y106.613 E28.27685
G1 X96.555 Y106.349 E28.28728
G1 X96.153 Y106.115 E28.30275
G0 F9000 X96.091 Y105.575
;TYPE:SKIN
G1 F1620 X96.862 Y104.804 E28.33902
G0 F9000 X97.197 Y105.035
G1 F1620 X96.525 Y105.706 E28.37060
G0 F9000 X96.883 Y105.914
G1 F1620 X97.482 Y105.315 E28.39878
G0 F9000 X97.743 Y105.620
G1 F1620 X97.126 Y106.237 E28.42780
G0 F9000 X97.271 Y106.658
G1 F1620 X97.943 Y105.986 E28.45941
G0 F9000 X98.054 Y106.440
G1 F1620 X97.242 Y107.253 E28.49762
G0 F9000 X98.012 Y107.614
G1 F1620 X93.432 Y112.193 E28.71303
G0 F9000 X93.514 Y112.677
G1 F1620 X94.254 Y111.937 E28.74784
G0 F9000 X94.367 Y112.390
G1 F1620 X93.714 Y113.043 E28.77855
G0 F9000 X93.968 Y113.354
G1 F1620 X94.561 Y112.762 E28.80642
G0 F9000 X94.815 Y113.073
G1 F1620 X94.265 Y113.624 E28.83232
G0 F9000 X94.612 Y113.842
G1 F1620 X95.237 Y113.217 E28.86171
G0 F9000 X95.742 Y113.278
G1 F1620 X95.028 Y113.991 E28.89527
G0 F9000 X95.497 Y114.088
G1 F1620 X96.307 Y113.278 E28.93337
G0 F9000 X96.873 Y113.278
G1 F1620 X95.983 Y114.168 E28.97524
G0 F9000 X96.549 Y114.168
G1 F1620 X97.439 Y113.278 E29.01710
G0 F9000 X98.004 Y113.278
G1 F1620 X97.114 Y114.168 E29.05896
G0 F9000 X97.680 Y114.168
G1 F1620 X98.570 Y113.278 E29.10083
G0 F9000 X99.136 Y113.278
G1 F1620 X98.246 Y114.168 E29.14269
G0 F9000 X98.811 Y114.168
G1 F1620 X99.702 Y113.278 E29.18457
G0 F9000 X100.268 Y113.277
G1 F1620 X99.377 Y114.168 E29.22648
G0 F9000 X99.943 Y114.168
G1 F1620 X100.834 Y113.277 E29.26839
G0 F9000 X101.399 Y113.277
G1 F1620 X100.508 Y114.168 E29.31030
G0 F9000 X101.074 Y114.168
G1 F1620 X101.965 Y113.277 E29.35221
G0 F9000 X102.531 Y113.277
G1 F1620 X101.640 Y114.168 E29.39412
G0 F9000 X102.205 Y114.168
G1 F1620 X103.096 Y113.277 E29.43603
G0 F9000 X103.662 Y113.277
G1 F1620 X102.771 Y114.168 E29.47794
G0 F9000 X103.337 Y114.168
G1 F1620 X104.287 Y113.218 E29.52263
G0 F9000 X104.837 Y112.668
G1 F1620 X105.605 Y111.900 E29.55875
G0 F9000 X105.771 Y112.299
G1 F1620 X103.902 Y114.168 E29.64667
G0 F9000 X104.468 Y114.168
G1 F1620 X105.952 Y112.684 E29.71647
G0 F9000 X106.201 Y113.001
G1 F1620 X105.034 Y114.168 E29.77136
G0 F9000 X105.600 Y114.168
G1 F1620 X106.569 Y113.199 E29.81694
G0 F9000 X107.060 Y113.273
G1 F1620 X106.165 Y114.168 E29.85904
G0 F9000 X106.731 Y114.168
G1 F1620 X107.626 Y113.273 E29.90114
G0 F9000 X108.192 Y113.273
G1 F1620 X107.297 Y114.168 E29.94323
G0 F9000 X107.862 Y114.168
G1 F1620 X108.757 Y113.273 E29.98533
G0 F9000 X109.323 Y113.273
G1 F1620 X108.428 Y114.168 E30.02743
G0 F9000 X108.994 Y114.168
G1 F1620 X109.736 Y113.426 E30.06233
G0 F9000 X109.902 Y113.826
G1 F1620 X109.559 Y114.168 E30.07844
G0 F9000 X106.323 Y112.920
G0 X105.440 Y111.500
G1 F1620 X104.820 Y112.120 E30.10760
G0 F9000 X104.675 Y111.699
G1 F1620 X105.274 Y111.100 E30.13578
G0 F9000 X105.107 Y110.701
G1 F1620 X104.509 Y111.299 E30.16391
G0 F9000 X104.344 Y110.898
G1 F1620 X104.942 Y110.300 E30.19204
G0 F9000 X104.776 Y109.901
G1 F1620 X104.179 Y110.498 E30.22012
G0 F9000 X104.014 Y110.097
G1 F1620 X104.610 Y109.501 E30.24815
G0 F9000 X104.444 Y109.101
G1 F1620 X103.849 Y109.697 E30.27616
